!!!!SEGMENT: pl-cz--iii-116--001-002_dankowski-adalbert--vesperae-solenne-laudate-pueri.krn
!!!cenid: 18xx:818
!!!COM: Dankowski, Adalbert
!!!COM-rismID: pe30000793
!!!CDT: ~1760-~1836
!!!CNT: Polish
!!!OPR: Vesperae Solenne
!!!OTL: Laudate pueri
!!!OMV: 002
!!!PDT: 1839
!!!AGN: Sacred; Vespers
!!!YEC: Copyright 2022 Narodowy Instytut Fryderyka Chopina (https://polishscores.org)
!!!YEM: License CC-BY-4.0 (https://creativecommons.org/licenses/by/4.0)
!!!SMS-siglum: PL-CZ
!!!SMS-shelfmark: III-116
!!!SMS-shelfwork: 001-002 M
!!!SMS-variant:
!!!SMS-altvar:
!!!NIFC-rismSourceID: 300000114
!!!NIFC-rismChildID: 300000114
!!!NIFC-islandoraID: pl-cz:34584
!!!URL-pdf-islandora: https://repozytorium.nifc.pl/islandora/object/pl-cz%3A34584/datastream/PDF/view
!!!URL-scan: https://polish.musicsources.pl/pl/lokalizacje/galeria/rekopisy/6833/1 @EN{Scan on Polish Music Sources Website} @PL{Skany w portalu Dziedzictwo Muzyki Polskiej w otwartym dostępie}
!!!IIIF:
!!!ONB-nifc: UWAGA: części Vesperae: Dixit Dominus, Laudate pueri, Laetatus sum, Nisi Dominus, Magnificat
!!!OMD:
!!!OMD-mod: Allegro moderato
!!!AIN: 1 alto 1 bass 1 clrno 2 cor 1 organ 1 soprn 1 tenor 1 timpa 2 violn
!!!key: G
**kern	**fba	**dynam	**kern	**dynam	**kern	**dynam	**kern	**text	**kern	**text	**kern	**text	**kern	**text	**kern	**kern	**kern	**kern
*group5	*	*	*group4	*	*group4	*	*group3	*	*group3	*	*group3	*	*group3	*	*group2	*group1	*group1	*group1
*part11	*	*	*part10	*	*part9	*	*part8	*	*part7	*	*part6	*	*part5	*	*part4	*part3	*part2	*part1
*staff11	*	*	*staff10	*	*staff9	*	*staff8	*	*staff7	*	*staff6	*	*staff5	*	*staff4	*staff3	*staff2	*staff1
*I"Organ	*	*	*I"Violino 2do	*	*I"Violino 1mo	*	*I"Baſso	*	*I"Tenor	*	*I"Alto.	*	*I"Cant	*	*I"Tympan	*I"Clarino Principalo.	*I"Corno. 2do ex D.	*I"Corno Obligato 1mo ex D
*mI"Organo	*	*	*mI"Violino II	*	*mI"Violino I	*	*mI"Basso	*	*mI"Tenore	*	*mI"Alto	*	*mI"Soprano	*	*mI"Timpano	*mI"Clarino principale in D	*mI"Corno II in D	*mI"Corno I in D
*I'org	*	*	*I'vl II	*	*I'vl I	*	*I'B	*	*I'T	*	*I'A	*	*I'S	*	*I'timp	*I'clno princ in D	*I'cor II in G	*I'cor I in G
*Iorgan	*	*	*Ivioln	*	*Ivioln	*	*Ibass	*	*Itenor	*	*Ialto	*	*Isoprn	*	*Itimpa	*Iclrno	*Icor	*Icor
*ICklav	*	*	*ICstr	*	*ICstr	*	*ICvox	*	*ICvox	*	*ICvox	*	*ICvox	*	*ICidio	*ICbras	*ICbras	*ICbras
*IGcont	*	*	*	*	*	*	*	*	*	*	*	*	*	*	*	*	*	*
*clefF4	*	*	*clefG2	*	*clefG2	*	*clefF4	*	*clefC4	*	*clefC3	*	*clefC1	*	*clefF4	*clefG2	*clefG2	*clefG2
*	*	*	*	*	*	*	*	*	*mclefGv2	*	*mclefG2	*	*mclefG2	*	*	*	*	*
*	*	*	*	*	*	*	*	*	*	*	*	*	*	*	*	*ITrd-1c-2	*ITrd3c5	*ITrd3c5
*k[f#]	*	*	*k[f#]	*	*k[f#]	*	*k[f#]	*	*k[f#]	*	*k[f#]	*	*k[f#]	*	*k[]	*k[f#c#]	*k[f#]	*k[f#]
*G:	*	*	*G:	*	*G:	*	*G:	*	*G:	*	*G:	*	*G:	*	*G:	*G:	*	*
*M2/4	*	*	*M2/4	*	*M2/4	*	*M2/4	*	*M2/4	*	*M2/4	*	*M2/4	*	*M2/4	*M2/4	*M2/4	*M2/4
*all\right	*	*	*all\right	*	*all\right	*	*all\right	*	*all\right	*	*all\right	*	*all\right	*	*	*	*all\right	*all\right
!LO:TX:a:i:t=Allo Mode.:mod=	!	!	!LO:TX:a:i:t=Allo Moderato:mod=	!	!LO:TX:a:i:t=AlloModera:mod=	!	!LO:TX:a:t=Modera:mod=	!	!	!	!LO:TX:a:t=Moder.:mod=	!	!LO:TX:a:t=Modera.:mod=	!	!	!	!LO:TX:a:t=Moderato:mod=	!LO:TX:a:t=Moderato:mod=
!	!	!	!	!	!	!	!	!	!	!	!	!	!	!	!LO:MO:mod=!LO&colon;TX&colon;t=Tacet	!LO:MO:mod=!LO&colon;TX&colon;t=Tacet	!	!
!	!	!	!	!	!LO:TX:a:i:t=Solo	!	!	!LO:TX:t=P:problem:znaki: w źródle f# zamiast F#	!	!	!	!	!	!	!LO:TX:a:t=Laudate Tacet	!LO:TX:a:t=Laudate Pueri Tacet	!LO:TX:a:t=Ex G.:mod=	!LO:TX:a:t=Ex G.:mod=
8r	.	.	8r	.	8dd\	.	8r	.	8r	.	8r	.	8r	.	8ryy	8ryy	8r	8r
=1	=1	=1	=1	=1	=1	=1	=1	=1	=1	=1	=1	=1	=1	=1	=1	=1	=1	=1
!	!	!	!LO:TX:a:i:t=Solo	!	!	!	!	!	!LO:TX:a:t=31:mod=	!	!	!	!LO:TX:a:t=15:mod=	!	!	!	!	!
!	!	!	!	!	!	!	!LO:N:vis=00	!	!	!	!LO:N:vis=00	!	!LO:N:vis=00	!	!	!	!	!
8r	.	.	4b\	.	8d\L 8b 8gg	.	0r	.	2r	.	0r	.	0r	.	2ryy	2ryy	4g\	4b\
!LO:TX:t=P:problem=mixed beam	!	!	!	!	!	!	!	!	!	!	!	!	!	!	!	!	!	!
8G\L	.	.	.	.	32gg\LL	.	.	.	.	.	.	.	.	.	.	.	.	.
.	.	.	.	.	32ff#\	.	.	.	.	.	.	.	.	.	.	.	.	.
.	.	.	.	.	32gg\	.	.	.	.	.	.	.	.	.	.	.	.	.
.	.	.	.	.	32aa\JJJ	.	.	.	.	.	.	.	.	.	.	.	.	.
8d\	4	.	16dd\LL	.	16bb\LL	.	.	.	.	.	.	.	.	.	.	.	8g\L	8b\L
.	.	.	16b\	.	16gg\	.	.	.	.	.	.	.	.	.	.	.	.	.
8D/J	3	.	16a\	.	16ff#\	.	.	.	.	.	.	.	.	.	.	.	8d\J	8a\J
.	.	.	16cc\JJ	.	16aa\JJ	.	.	.	.	.	.	.	.	.	.	.	.	.
=2	=2	=2	=2	=2	=2	=2	=2	=2	=2	=2	=2	=2	=2	=2	=2	=2	=2	=2
*2\right	*	*	*	*	*	*	*	*	*	*	*	*	*	*	*	*	*	*
*tremolo	*	*	*	*	*	*	*	*	*	*	*	*	*	*	*	*	*	*
!LO:TX:a:t=....:mod=	!	!	!	!	!	!	!	!	!	!	!	!	!	!	!	!	!	!
8G\L	.	.	8.b\L	.	8.gg\L	.	.	.	2r	.	.	.	.	.	2ryy	2ryy	8B/L	8g\L
8G\	.	.	.	.	.	.	.	.	.	.	.	.	.	.	.	.	8B/	8g\
.	.	.	32dd\LL	.	32ff#\LL	.	.	.	.	.	.	.	.	.	.	.	.	.
.	.	.	32cc\JJJ	.	32ee\JJJ	.	.	.	.	.	.	.	.	.	.	.	.	.
8G\	.	.	8b\L	.	8dd\L	.	.	.	.	.	.	.	.	.	.	.	8B/J	8g\J
8G\J	.	.	8b\J	.	8dd#X\J	.	.	.	.	.	.	.	.	.	.	.	8r	8r
=3	=3	=3	=3	=3	=3	=3	=3	=3	=3	=3	=3	=3	=3	=3	=3	=3	=3	=3
*	*	*	*2\right	*	*	*	*	*	*	*	*	*	*	*	*	*	*	*2\right
*	*	*	*tremolo	*	*	*	*	*	*	*	*	*	*	*	*	*	*	*
!LO:TX:a:t=....:mod=	!	!	!	!	!	!	!	!	!	!	!	!	!	!	!	!	!	!
8G\L	6 4	.	8cc\L	.	16ee\LL	.	.	.	2r	.	.	.	.	.	2ryy	2ryy	2G/	2g\
.	.	.	.	.	16gg\	.	.	.	.	.	.	.	.	.	.	.	.	.
8G\	.	.	8cc\	.	16ff#\	.	.	.	.	.	.	.	.	.	.	.	.	.
.	.	.	.	.	16gg\JJ	.	.	.	.	.	.	.	.	.	.	.	.	.
8G\	.	.	8cc\	.	16aa\LL	.	.	.	.	.	.	.	.	.	.	.	.	.
.	.	.	.	.	16gg\	.	.	.	.	.	.	.	.	.	.	.	.	.
8G\J	.	.	8cc\J	.	16ff#\	.	.	.	.	.	.	.	.	.	.	.	.	.
.	.	.	.	.	16ee\JJ	.	.	.	.	.	.	.	.	.	.	.	.	.
*Xtremolo	*	*	*Xtremolo	*	*	*	*	*	*	*	*	*	*	*	*	*	*	*
=4	=4	=4	=4	=4	=4	=4	=4	=4	=4	=4	=4	=4	=4	=4	=4	=4	=4	=4
!LO:TX:t=P:problem=mixed beam	!	!	!	!	!	!	!	!	!	!	!	!	!	!	!	!	!	!
8G\L	4	.	8cc\L	.	8ee\L	.	.	.	2r	.	.	.	.	.	2ryy	2ryy	8G/L	8g\L
8GG/	3	.	8b\J	.	8dd\J	.	.	.	.	.	.	.	.	.	.	.	8G/J	8g\J
!	!	!	!LO:SIC:o=16b\LL	!	!	!	!	!	!	!	!	!	!	!	!	!	!	!
8G\	.	.	(16b\LL	.	(16gg\LL	.	.	.	.	.	.	.	.	.	.	.	8r	8r
.	.	.	16dd\	.	16bb\	.	.	.	.	.	.	.	.	.	.	.	.	.
8G\J	.	.	16bb\	.	16ddd\	.	.	.	.	.	.	.	.	.	.	.	8g\	8b\
!	!	!	!LO:SIC:o=16gg\JJ	!	!	!	!	!	!	!	!	!	!	!	!	!	!	!
.	.	.	16gg\JJ)	.	16bb\JJ)	.	.	.	.	.	.	.	.	.	.	.	.	.
=5	=5	=5	=5	=5	=5	=5	=5	=5	=5	=5	=5	=5	=5	=5	=5	=5	=5	=5
!LO:TX:t=P:problem=mixed beam	!	!	!	!	!	!	!LO:N:vis=0	!	!	!	!LO:N:vis=00	!	!LO:N:vis=00	!	!	!	!	!
8d\L	4	.	8gg\L	.	16bb\LL	.	1r	.	2r	.	0r	.	0r	.	2ryy	2ryy	8g\L	8b\L
.	.	.	.	.	16aa\	.	.	.	.	.	.	.	.	.	.	.	.	.
8D/	3	.	8ff#\J	.	16bb\	.	.	.	.	.	.	.	.	.	.	.	8d\J	8a\J
!	!	!	!	!	!LO:MO:mod=!null:null	!	!	!	!	!	!	!	!	!	!	!	!	!
!	!	!	!	!	!LO:N:vis=8	!	!	!	!	!	!	!	!	!	!	!	!	!
.	.	.	.	.	16aa\JJ	.	.	.	.	.	.	.	.	.	.	.	.	.
8F#\	.	.	16ff#\LL	.	16aa\LL	.	.	.	.	.	.	.	.	.	.	.	8r	8r
.	.	.	16aa\JJ	.	16ccc\	.	.	.	.	.	.	.	.	.	.	.	.	.
8F#\J	.	.	16a\LL	.	16ff#\	.	.	.	.	.	.	.	.	.	.	.	8a\	8cc\
.	.	.	16cc\JJ	.	16aa\JJ	.	.	.	.	.	.	.	.	.	.	.	.	.
!	!	!	!	!	!LO:LB:g=original	!	!	!	!	!	!	!	!	!	!	!	!	!LO:LB:g=original
=6	=6	=6	=6	=6	=6	=6	=6	=6	=6	=6	=6	=6	=6	=6	=6	=6	=6	=6
!LO:TX:t=P:problem=mixed beam	!	!	!	!	!	!	!	!	!	!	!	!	!	!	!	!	!	!
8G\L	.	.	8cc\L	.	8aa\L	.	.	.	2r	.	.	.	.	.	2ryy	2ryy	8a\L	8cc\L
8GG/J	3	.	8b\	.	8gg\J	.	.	.	.	.	.	.	.	.	.	.	8g\J	8b\J
8r	.	.	8b\	.	8dd\L	.	.	.	.	.	.	.	.	.	.	.	4b\	4dd\
8G\	.	.	8b\J	.	8dd\J	.	.	.	.	.	.	.	.	.	.	.	.	.
=7	=7	=7	=7	=7	=7	=7	=7	=7	=7	=7	=7	=7	=7	=7	=7	=7	=7	=7
!LO:TX:t=P:problem=mixed beam	!	!	!	!	!	!	!	!	!	!	!	!	!	!	!	!	!	!
8G\L	.	.	8.b\L	.	16dd\LL	.	2r	.	2r	.	.	.	.	.	2ryy	2ryy	8b\L	8dd\L
.	.	.	.	.	16b\	.	.	.	.	.	.	.	.	.	.	.	.	.
8GG/	.	.	.	.	16ee\	.	.	.	.	.	.	.	.	.	.	.	16g\L	16b\L
.	.	.	32cc\LL	.	16dd\JJ	.	.	.	.	.	.	.	.	.	.	.	16b\JJ	16dd\JJ
.	.	.	32b\JJJ	.	.	.	.	.	.	.	.	.	.	.	.	.	.	.
8C/	6	.	16b\LL	.	16dd\LL	.	.	.	.	.	.	.	.	.	.	.	16b\LL	16dd\LL
.	.	.	16a\	.	16cc\	.	.	.	.	.	.	.	.	.	.	.	16a\	16cc\
8C#X/J	5	.	16a\	.	16cc\	.	.	.	.	.	.	.	.	.	.	.	16a\	16cc\
.	.	.	16g\JJ	.	16b\JJ	.	.	.	.	.	.	.	.	.	.	.	16g\JJ	16b\JJ
!	!	!	!	!	!	!	!	!	!	!	!	!	!	!	!	!	!LO:LB:g=original	!
=8	=8	=8	=8	=8	=8	=8	=8	=8	=8	=8	=8	=8	=8	=8	=8	=8	=8	=8
!LO:TX:t=P:problem=mixed beam	!	!	!	!	!	!	!LO:TX:a:i:t=Solo	!	!	!	!	!	!	!	!	!	!	!
8D\L	.	.	8g/L	.	8b\L	.	4r	.	2r	.	.	.	.	.	2ryy	2ryy	8g\L	8b\L
8DD/	.	.	8f#/	.	8a\J	.	.	.	.	.	.	.	.	.	.	.	16d\L	16a\L
.	.	.	.	.	.	.	.	.	.	.	.	.	.	.	.	.	16d\JJ	16a\JJ
8D\J	.	.	8f#/J	.	8r	.	8r	.	.	.	.	.	.	.	.	.	8d\	8a\
8r	.	.	8r	.	8a/	.	8D\	Lau-	.	.	.	.	.	.	.	.	8r	8r
!	!	!	!LO:LB:g=original	!	!	!	!	!	!	!	!	!	!	!	!	!	!	!
=9	=9	=9	=9	=9	=9	=9	=9	=9	=9	=9	=9	=9	=9	=9	=9	=9	=9	=9
!	!	!	!	!	!	!	!	!	!	!	!	!	!	!	!	!	!LO:TX:a:t=6:mod=	!LO:TX:a:t=6:mod=
!	!	!	!	!	!	!	!	!	!	!	!LO:N:vis=00	!	!LO:N:vis=00	!	!	!	!LO:N:vis=00	!LO:N:vis=00
8r	.	.	8r	.	4b\	.	(4G\	-da-	2r	.	0r	.	0r	.	2ryy	2ryy	0r	0r
!LO:TX:t=P:problem=mixed beam	!	!	!	!	!	!	!	!	!	!	!	!	!	!	!	!	!	!
8G\L	.	.	8g/L	.	.	.	.	.	.	.	.	.	.	.	.	.	.	.
!	!	!	!	!	!	!	!LO:SIC:o=16B\LL)	!	!	!	!	!	!	!	!	!	!	!
8D\	4	.	8g/	.	16dd\LL	.	16B\LL	.	.	.	.	.	.	.	.	.	.	.
!	!	!	!	!	!	!	!LO:SIC:o=16G\JJ	!	!	!	!	!	!	!	!	!	!	!
.	.	.	.	.	16b\	.	16G\JJ)	.	.	.	.	.	.	.	.	.	.	.
8DD/J	3	.	8f#/J	.	16a\	.	16F#\LL	-te	.	.	.	.	.	.	.	.	.	.
.	.	.	.	.	16cc\JJ	.	16A\JJ	.	.	.	.	.	.	.	.	.	.	.
!LO:LB:g=original	!	!	!	!	!	!	!	!	!	!	!	!	!	!	!	!	!	!
=10	=10	=10	=10	=10	=10	=10	=10	=10	=10	=10	=10	=10	=10	=10	=10	=10	=10	=10
!LO:TX:t=P:problem=mixed beam	!	!	!	!	!	!	!	!	!	!	!	!	!	!	!	!	!	!
8GG/L	.	.	8d/L	.	8.b\L	.	8.G\	pu-	2r	.	.	.	.	.	2ryy	2ryy	.	.
8GG/	.	.	8e/	.	.	.	.	.	.	.	.	.	.	.	.	.	.	.
.	.	.	.	.	32dd\LL	.	32F#\LLL	-e-	.	.	.	.	.	.	.	.	.	.
.	.	.	.	.	32cc\JJJ	.	32E\JJJ	.	.	.	.	.	.	.	.	.	.	.
8GG/	.	.	8d/	.	8b\L	.	8D\	-ri	.	.	.	.	.	.	.	.	.	.
!	!	!	!	!	!	!	!LO:SIC:o=8D#X\	!	!	!	!	!	!	!	!	!	!	!
8G\J	.	.	8f#/J	.	8b\J	.	(8D#X\	Do-	.	.	.	.	.	.	.	.	.	.
=11	=11	=11	=11	=11	=11	=11	=11	=11	=11	=11	=11	=11	=11	=11	=11	=11	=11	=11
*	*	*	*	*	*2\right	*	*	*	*	*	*	*	*	*	*	*	*	*
*tremolo	*	*	*tremolo	*	*tremolo	*	*	*	*	*	*	*	*	*	*	*	*	*
8G\L	6 4	.	8e/L	.	8cc\L	.	16E\LL	.	2r	.	.	.	.	.	2ryy	2ryy	.	.
.	.	.	.	.	.	.	16G\	.	.	.	.	.	.	.	.	.	.	.
8G\	.	.	8e/	.	8cc\	.	16F#\	.	.	.	.	.	.	.	.	.	.	.
.	.	.	.	.	.	.	16G\JJ	.	.	.	.	.	.	.	.	.	.	.
8G\	.	.	8e/	.	8cc\	.	16A\LL	.	.	.	.	.	.	.	.	.	.	.
.	.	.	.	.	.	.	16G\	.	.	.	.	.	.	.	.	.	.	.
8G\J	.	.	8e/J	.	8cc\J	.	16F#\	.	.	.	.	.	.	.	.	.	.	.
.	.	.	.	.	.	.	16E\JJ	.	.	.	.	.	.	.	.	.	.	.
*Xtremolo	*	*	*Xtremolo	*	*Xtremolo	*	*	*	*	*	*	*	*	*	*	*	*	*
=12	=12	=12	=12	=12	=12	=12	=12	=12	=12	=12	=12	=12	=12	=12	=12	=12	=12	=12
!LO:TX:t=P:problem=mixed beam	!	!	!	!	!	!	!LO:SIC:o=16E\	!	!	!	!	!	!	!	!	!	!	!
8G\L	4	.	8e/L	.	8cc\L	.	16E\)	.	2r	.	.	.	.	.	2ryy	2ryy	.	.
.	.	.	.	.	.	.	16E\	-mi-	.	.	.	.	.	.	.	.	.	.
!	!	!	!	!	!	!	!	!LO:MO:mod=-num&colon;	!	!	!	!	!	!	!	!	!	!
8GG/	3	.	8d/	.	8b\J	.	8D\	-num	.	.	.	.	.	.	.	.	.	.
8G\	.	.	8g/	.	16gg\LL	.	8r	.	.	.	.	.	.	.	.	.	.	.
.	.	.	.	.	16dd\	.	.	.	.	.	.	.	.	.	.	.	.	.
8G\J	.	.	8b/J	.	16bb\	.	16G\LL	lau-	.	.	.	.	.	.	.	.	.	.
.	.	.	.	.	16gg\JJ	.	16B\JJ	.	.	.	.	.	.	.	.	.	.	.
!	!	!	!	!	!	!	!LO:LB:g=original	!	!	!	!	!	!	!	!	!	!	!
=13	=13	=13	=13	=13	=13	=13	=13	=13	=13	=13	=13	=13	=13	=13	=13	=13	=13	=13
!	!	!	!	!	!	!	!	!	!	!	!LO:N:vis=0	!	!LO:N:vis=0	!	!	!	!LO:N:vis=0	!LO:N:vis=0
8d\L	4	.	8b\L	.	8gg\L	.	8B\	-da-	2r	.	1r	.	1r	.	2ryy	2ryy	1r	1r
!	!	!	!	!	!	!	!	!LO:MO:mod=-te,	!	!	!	!	!	!	!	!	!	!
8D\	3	.	8a\	.	8ff#\J	.	8A\	-te	.	.	.	.	.	.	.	.	.	.
8F#\	.	.	8cc\	.	16aa\LL	.	8r	.	.	.	.	.	.	.	.	.	.	.
.	.	.	.	.	16ff#\	.	.	.	.	.	.	.	.	.	.	.	.	.
*	*	*	*	*	*	*	*	*ij	*	*	*	*	*	*	*	*	*	*
8F#\J	.	.	8cc\J	.	16ccc\	.	16A\LL	lau-	.	.	.	.	.	.	.	.	.	.
.	.	.	.	.	16aa\JJ	.	16c\JJ	.	.	.	.	.	.	.	.	.	.	.
!	!	!	!	!	!LO:LB:g=original	!	!	!	!	!	!	!	!	!	!	!	!	!
=14	=14	=14	=14	=14	=14	=14	=14	=14	=14	=14	=14	=14	=14	=14	=14	=14	=14	=14
!LO:TX:t=P:problem=mixed beam	!	!	!	!	!	!	!	!	!	!	!	!	!	!	!	!	!	!
8G\L	4	.	8cc\L	.	8aa\L	.	8c\	-da-	2r	.	.	.	.	.	2ryy	2ryy	.	.
8GG/	3	.	8b\	.	8gg\J	.	8B\	-te	.	.	.	.	.	.	.	.	.	.
*	*	*	*	*	*	*	*	*Xij	*	*	*	*	*	*	*	*	*	*
8G\	.	.	8dd\	.	8bb\L	.	8d\	no-	.	.	.	.	.	.	.	.	.	.
8G\J	.	.	8dd\J	.	8bb\J	.	8d\	-men	.	.	.	.	.	.	.	.	.	.
=15	=15	=15	=15	=15	=15	=15	=15	=15	=15	=15	=15	=15	=15	=15	=15	=15	=15	=15
!LO:TX:t=P:problem=mixed beam	!	!	!	!	!	!	!LO:SIC:o=16d\LL	!	!	!	!	!	!	!	!	!	!	!
8G\L	.	.	16dd\LL	.	16bb\LL	.	(16d\LL	Do-	2r	.	2r	.	2r	.	2ryy	2ryy	8r	8r
.	.	.	16b\	.	16gg\	.	16B\	.	.	.	.	.	.	.	.	.	.	.
8c\	6	.	16cc\	.	16aa\	.	16c\	.	.	.	.	.	.	.	.	.	8g\L	8b\L
.	.	.	16a\JJ	.	16ccc\JJ	.	16A\JJ	.	.	.	.	.	.	.	.	.	.	.
!	!	!	!	!	!	!	!LO:SIC:o=8G\	!	!	!	!	!	!	!	!	!	!	!
8d\	4	.	8g/L	.	8bb\L	.	8G\)	.	.	.	.	.	.	.	.	.	8g\	8b\
8D/J	3	.	8f#/J	.	8aa\J	.	8F#\	-mi-	.	.	.	.	.	.	.	.	8d\J	8a\J
=16	=16	=16	=16	=16	=16	=16	=16	=16	=16	=16	=16	=16	=16	=16	=16	=16	=16	=16
!LO:TX:t=P:problem=mixed beam	!	!	!	!	!	!	!	!LO:MO:mod=-ni.	!	!	!	!	!	!	!	!	!	!
8G\L	.	.	4g/	.	4gg\	.	4G\	-num	2r	.	4r	.	4r	.	2ryy	2ryy	8B/L	8g\L
8GG/	.	.	.	.	.	.	.	.	.	.	.	.	.	.	.	.	16B/L	16g\L
.	.	.	.	.	.	.	.	.	.	.	.	.	.	.	.	.	16B/JJ	16g\JJ
8G\J	.	.	8r	.	8r	.	4r	.	.	.	8r	.	8r	.	.	.	8B/	8g\
8r	.	.	8b\	.	8dd\	.	.	.	.	.	8b\	Sit	8dd\	Sit	.	.	8r	8r
=17	=17	=17	=17	=17	=17	=17	=17	=17	=17	=17	=17	=17	=17	=17	=17	=17	=17	=17
!LO:TX:t=P:problem=mixed beam	!	!	!	!	!	!	!LO:TX:a:t=6:mod=	!	!	!	!	!	!	!	!	!	!LO:TX:a:t=5:mod=	!LO:TX:a:t=5:mod=
!	!	!	!	!	!	!	!LO:N:vis=00	!	!	!	!	!	!	!	!	!	!LO:N:vis=00	!LO:N:vis=00
8G\L	.	.	8.b\L	.	8.dd\L	.	0r	.	2r	.	(8.b\L	no-	(8.dd\L	no-	2ryy	2ryy	0r	0r
8GG/	.	.	.	.	.	.	.	.	.	.	.	.	.	.	.	.	.	.
.	.	.	16cc\K	.	16ee\K	.	.	.	.	.	16cc\Jk	.	16ee\Jk	.	.	.	.	.
8D/	4	.	8b\	.	8dd\	.	.	.	.	.	8b\)	.	8dd\)	.	.	.	.	.
8DD/J	3	.	8a\J	.	8cc\J	.	.	.	.	.	8a\	-men	8cc\	-men	.	.	.	.
=18	=18	=18	=18	=18	=18	=18	=18	=18	=18	=18	=18	=18	=18	=18	=18	=18	=18	=18
*tremolo	*	*	*	*	*	*	*	*	*	*	*	*	*	*	*	*	*	*
!	!	!	!	!	!	!	!	!	!	!	!	!	!	!LO:MO:mod=Do-	!	!	!	!
8GG/L	.	.	4g/	.	4b\	.	.	.	2r	.	4g\	Do-	4b\	do-	2ryy	2ryy	.	.
8GG/	.	.	.	.	.	.	.	.	.	.	.	.	.	.	.	.	.	.
8GG/	.	.	16g/LL	.	16b\LL	.	.	.	.	.	16g\LL	-mi-	16b\LL	-mi-	.	.	.	.
.	.	.	16f#/	.	16a\	.	.	.	.	.	16f#\JJ	.	16a\JJ	.	.	.	.	.
8GG/J	.	.	16g/	.	16b\	.	.	.	.	.	16g\LL	-ni	16b\LL	-ni	.	.	.	.
.	.	.	16a/JJ	.	16cc\JJ	.	.	.	.	.	16a\JJ	.	16cc\JJ	.	.	.	.	.
*Xtremolo	*	*	*	*	*	*	*	*	*	*	*	*	*	*	*	*	*	*
=19	=19	=19	=19	=19	=19	=19	=19	=19	=19	=19	=19	=19	=19	=19	=19	=19	=19	=19
!LO:TX:t=P:problem=mixed beam	!	!	!	!	!	!	!	!	!	!	!LO:SIC:o=8g\L	!	!	!	!	!	!	!
8GG/L	.	.	8g/L	.	8b\L	.	.	.	2r	.	(8g\L	be-	(8b\L	be-	2ryy	2ryy	.	.
!	!	!	!	!	!LO:MO:mod=!null:null	!	!	!	!	!	!	!	!	!	!	!	!	!
!	!	!	!	!	!LO:N:vis=32	!	!	!	!	!	!	!	!	!	!	!	!	!
8G\	.	.	16a/L	.	16cc\L	.	.	.	.	.	16a\L	.	16cc\L	.	.	.	.	.
!	!	!	!	!	!LO:MO:mod=!null:null	!	!	!	!	!	!	!	!	!	!	!	!	!
!	!	!	!	!	!LO:N:vis=32	!	!	!	!	!	!	!	!	!	!	!	!	!
.	.	.	16b/JJ	.	16dd\JJ	.	.	.	.	.	16b\JJ	.	16dd\JJ	.	.	.	.	.
!	!	!	!	!	!	!	!	!	!	!	!LO:SIC:o=8a\	!	!	!	!	!	!	!
8C/	6	.	8a/L	.	8cc\L	.	.	.	.	.	8a\)	.	8cc\)	.	.	.	.	.
8C#X/J	5	.	8g/J	.	8b\J	.	.	.	.	.	8g\	-ne-	8b\	-ne-	.	.	.	.
!	!	!	!LO:LB:g=original	!	!	!	!	!	!	!	!	!	!	!	!	!	!	!
=20	=20	=20	=20	=20	=20	=20	=20	=20	=20	=20	=20	=20	=20	=20	=20	=20	=20	=20
8D/L	4	.	8g/L	.	8b\L	.	.	.	2r	.	8g\	-dic-	8b\	-dic-	2ryy	2ryy	.	.
!	!	!	!	!	!	!	!	!	!	!	!	!LO:MO:mod=-tum,	!	!LO:MO:mod=-tum,	!	!	!	!
8DD/	3	.	8f#/	.	8a\J	.	.	.	.	.	8f#\	-tum	8a\	-tum	.	.	.	.
8D/	.	.	8f#/	.	8a\L	.	.	.	.	.	8f#\	ex	8a\	ex	.	.	.	.
8D/J	.	.	8f#/J	.	8a\J	.	.	.	.	.	8f#\	hoc	8a\	hoc	.	.	.	.
!LO:LB:g=original	!	!	!	!	!	!	!	!	!	!	!	!	!	!	!	!	!	!
=21	=21	=21	=21	=21	=21	=21	=21	=21	=21	=21	=21	=21	=21	=21	=21	=21	=21	=21
!LO:TX:t=P:problem=mixed beam	!	!	!	!	!	!	!LO:N:vis=0	!	!	!	!LO:SIC:v:o=8f#\	!LO:MO:mod=-nunc,	!	!LO:MO:mod=-nunc,	!	!	!	!
8D/L	4	.	8g/L	.	8b\L	.	1r	.	2r	.	8g\	nunc	8b\	nunc	2ryy	2ryy	2r	2r
8DD/	3	.	8f#/	.	8a\	.	.	.	.	.	8f#\	et	8a\	et	.	.	.	.
!!LO:MO:ori
!	!	!	!	!	!	!	!	!	!	!	!LO:LB:g=original	!	!	!	!	!	!	!
=-	=-	=-	=-	=-	=-	=-	=-	=-	=-	=-	=-	=-	=-	=-	=-	=-	=-	=-
!!LO:MO:end
8G\	.	.	8g/	.	8b\	.	.	.	.	.	8g\	us-	8b\	us-	.	.	.	.
8F#\J	5	.	8a/J	.	8cc\J	.	.	.	.	.	16a\	-que	16cc\	-que	.	.	.	.
.	.	.	.	.	.	.	.	.	.	.	16a\	in	16cc\	in	.	.	.	.
!	!	!	!	!	!	!	!	!	!	!	!	!	!LO:PB:g=original	!	!	!	!	!
=22	=22	=22	=22	=22	=22	=22	=22	=22	=22	=22	=22	=22	=22	=22	=22	=22	=22	=22
!	!	!	!	!	!	!	!	!	!	!	!	!	!	!LO:MO:mod=sae-	!	!	!	!
8G\L	.	.	4.g/	.	4b\	.	.	.	2r	.	4.g\	sae-	(4b\	se-	2ryy	2ryy	8r	8r
8E\	.	.	.	.	.	.	.	.	.	.	.	.	.	.	.	.	8g\L	8b\L
8C\	6 5	.	.	.	4a\	.	.	.	.	.	.	.	8.a\)	.	.	.	8g\	8a\
8D\J	.	.	8f#/	.	.	.	.	.	.	.	8f#\	-cu-	.	.	.	.	8d\J	8a\J
.	.	.	.	.	.	.	.	.	.	.	.	.	16a\	-cu-	.	.	.	.
!	!	!	!	!	!LO:LB:g=original	!	!	!	!	!	!	!	!	!	!	!	!	!
=23	=23	=23	=23	=23	=23	=23	=23	=23	=23	=23	=23	=23	=23	=23	=23	=23	=23	=23
!	!	!	!	!	!	!	!LO:TX:a:i:t=Solo	!	!	!	!	!LO:MO:mod=-lum.	!	!LO:MO:mod=-lum.	!	!	!	!
4GG/	.	.	4g/	.	4b\	.	8r	.	2r	.	4g\	-la	4b\	-lum	2ryy	2ryy	4B/	4g\
.	.	.	.	.	.	.	8G\	Lau-	.	.	.	.	.	.	.	.	.	.
8r	.	.	8r	.	8r	.	16B\LL	-da-	.	.	4r	.	4r	.	.	.	4r	4r
.	.	.	.	.	.	.	16A\JJ	.	.	.	.	.	.	.	.	.	.	.
8D\	4	.	8f#/	.	8a\	.	16G\LL	-te	.	.	.	.	.	.	.	.	.	.
.	3	.	.	.	.	.	16F#\JJ	.	.	.	.	.	.	.	.	.	.	.
=24	=24	=24	=24	=24	=24	=24	=24	=24	=24	=24	=24	=24	=24	=24	=24	=24	=24	=24
!LO:TX:t=P:problem=mixed beam	!	!	!	!	!	!	!	!	!	!	!LO:TX:a:t=1:mod=	!	!LO:TX:a:t=1:mod=	!	!	!	!	!
8G\L	.	.	8d/L	.	8b\L	.	8G\	no-	2r	.	2r	.	2r	.	2ryy	2ryy	4r	4r
8GG/	.	.	8b/J	.	8dd\J	.	32B\LLL	-men	.	.	.	.	.	.	.	.	.	.
.	.	.	.	.	.	.	32A\	.	.	.	.	.	.	.	.	.	.	.
.	.	.	.	.	.	.	32B\	.	.	.	.	.	.	.	.	.	.	.
.	.	.	.	.	.	.	32c\JJJ	.	.	.	.	.	.	.	.	.	.	.
!	!	!	!	!	!	!	!	!LO:MO:mod=Do-	!	!	!	!	!	!	!	!	!	!
8D/	4	.	16b/LL	.	16dd\LL	.	8d\	do-	.	.	.	.	.	.	.	.	8r	8r
.	.	.	16a/	.	16cc\	.	.	.	.	.	.	.	.	.	.	.	.	.
8DD/J	3	.	16g/	.	16b\	.	8D/	-mi-	.	.	.	.	.	.	.	.	8d/	8a\
.	.	.	16f#/JJ	.	16a\JJ	.	.	.	.	.	.	.	.	.	.	.	.	.
!	!	!	!	!	!	!	!	!	!	!	!	!	!	!	!	!	!	!LO:LB:g=original
=25	=25	=25	=25	=25	=25	=25	=25	=25	=25	=25	=25	=25	=25	=25	=25	=25	=25	=25
!LO:TX:t=P:problem=mixed beam	!	!	!	!	!	!	!	!LO:MO:mod=ni.	!	!	!LO:TX:a:i:t=Solo	!	!LO:MO:mod=!LO&colon;TX&colon;i&colon;t=Solo	!	!	!	!	!
!	!	!	!	!	!	!	!	!	!	!	!	!	!null	!	!	!	!	!
8GG/L	.	.	4d/	.	4b\	.	4G\	-ni	2r	.	4r	.	4r	.	2ryy	2ryy	8B/L	8g\L
8G\	.	.	.	.	.	.	.	.	.	.	.	.	.	.	.	.	16B/L	16g\L
.	.	.	.	.	.	.	.	.	.	.	.	.	.	.	.	.	16B/JJ	16g\JJ
8GG/J	.	.	8r	.	8r	.	4r	.	.	.	8r	.	8r	.	.	.	8B/	8g\
8r	.	.	8b\	.	8dd\	.	.	.	.	.	8b\	A	8dd\	A	.	.	8r	8r
!	!	!	!	!	!	!	!LO:PB:g=original	!	!	!	!	!	!	!	!	!	!	!
=26	=26	=26	=26	=26	=26	=26	=26	=26	=26	=26	=26	=26	=26	=26	=26	=26	=26	=26
!	!	!	!	!	!	!	!LO:TX:a:t=6:mod=	!	!	!	!	!	!	!	!	!	!LO:TX:a:t=6:mod=	!LO:TX:a:t=6:mod=
!	!	!	!	!	!	!	!LO:N:vis=00	!	!	!	!	!	!	!	!	!	!LO:N:vis=00	!LO:N:vis=00
8G\L	3_ 1_	.	4g/	.	4b\	.	0r	.	2r	.	4g\	so-	4b\	so-	2ryy	2ryy	0r	0r
8G\	.	.	.	.	.	.	.	.	.	.	.	.	.	.	.	.	.	.
8G\	4_ 2_	.	4a/	.	4cc\	.	.	.	.	.	4a\	-lis	4cc\	-lis	.	.	.	.
8G\J	.	.	.	.	.	.	.	.	.	.	.	.	.	.	.	.	.	.
=27	=27	=27	=27	=27	=27	=27	=27	=27	=27	=27	=27	=27	=27	=27	=27	=27	=27	=27
8G\L	5 3	.	4b\	.	4dd\	.	.	.	2r	.	4b\	or-	4dd\	or-	2ryy	2ryy	.	.
8G\	.	.	.	.	.	.	.	.	.	.	.	.	.	.	.	.	.	.
8G\	6 4	.	8cc\L	.	8ee\L	.	.	.	.	.	8cc\L	-tu	8ee\L	-tu	.	.	.	.
8G\J	7 5	.	8dd\J	.	8ff#\J	.	.	.	.	.	8dd\J	.	8ff#\J	.	.	.	.	.
=28	=28	=28	=28	=28	=28	=28	=28	=28	=28	=28	=28	=28	=28	=28	=28	=28	=28	=28
8G\L	8_ 6_	.	4.ee\	.	4.gg\	.	.	.	2r	.	4.ee\	us-	4.gg\	us-	2ryy	2ryy	.	.
8G\	.	.	.	.	.	.	.	.	.	.	.	.	.	.	.	.	.	.
8G\	.	.	.	.	.	.	.	.	.	.	.	.	.	.	.	.	.	.
!	!	!	!	!	!	!	!	!	!	!	!	!LO:MO:mod=-que	!	!	!	!	!	!
8G\J	6 4	.	16dd\LL	.	16ff#\LL	.	.	.	.	.	16dd\LL	-quae	16ff#\LL	-que	.	.	.	.
.	.	.	16cc\JJ	.	16ee\JJ	.	.	.	.	.	16cc\JJ	.	16ee\JJ	.	.	.	.	.
=29	=29	=29	=29	=29	=29	=29	=29	=29	=29	=29	=29	=29	=29	=29	=29	=29	=29	=29
8G\L	5_ 3_	.	8b\L	.	8dd\L	.	.	.	2r	.	8b\	ad	8dd\	ad	2ryy	2ryy	.	.
!	!	!	!	!	!	!	!	!	!	!	!	!LO:MO:mod=oc-	!	!LO:MO:mod=oc-	!	!	!	!
8G\	.	.	16g\L	.	16b\L	.	.	.	.	.	16g\LL	o-	16b\LL	o-	.	.	.	.
.	.	.	16b\JJ	.	16dd\JJ	.	.	.	.	.	16b\JJ	.	16dd\JJ	.	.	.	.	.
8d\	4	.	16b\LL	.	16dd\LL	.	.	.	.	.	16b\LL	-ca-	16dd\LL	-ca-	.	.	.	.
!	!	!	!	!	!	!	!	!	!	!	!LO:SIC:o=(16a\	!	!	!	!	!	!	!
.	.	.	16a\	.	16cc\	.	.	.	.	.	16a\	.	16cc\	.	.	.	.	.
8D\J	3	.	16g\	.	16b\	.	.	.	.	.	16g\	.	16b\	.	.	.	.	.
!	!	!	!	!	!	!	!	!	!	!	!LO:SIC:o=16f#\JJ)	!	!	!	!	!	!	!
.	.	.	16f#\JJ	.	16a\JJ	.	.	.	.	.	16f#\JJ	.	16a\JJ	.	.	.	.	.
!LO:PB:g=original	!	!	!	!	!	!	!	!	!	!	!	!	!	!	!	!	!	!
=30	=30	=30	=30	=30	=30	=30	=30	=30	=30	=30	=30	=30	=30	=30	=30	=30	=30	=30
!	!	!	!	!	!	!	!LO:N:vis=0	!	!	!	!	!LO:MO:mod=-sum,	!	!LO:MO:mod=-sum,	!	!	!LO:N:vis=0	!LO:N:vis=0
8G\L	.	.	8g/L	.	8b\L	.	1r	.	2r	.	8g\	-sum	8b\	-sum	2ryy	2ryy	1r	1r
8G\	.	.	8g/J	.	8b\J	.	.	.	.	.	8g\	lau-	8b\	lau-	.	.	.	.
8G\	4 2	.	8e/L	.	8cc#X\L	.	.	.	.	.	8e\	-da-	8cc#X\	-da-	.	.	.	.
8G\J	.	.	16d/L	.	16b\L	.	.	.	.	.	16d\	-bi-	16b\	-bi-	.	.	.	.
.	.	.	16e/JJ	.	16cc#\JJ	.	.	.	.	.	16e\	-le	16cc#\	-le	.	.	.	.
!	!	!	!LO:LB:g=original	!	!	!	!	!	!	!	!LO:LB:g=original	!	!	!	!	!	!	!
=31	=31	=31	=31	=31	=31	=31	=31	=31	=31	=31	=31	=31	=31	=31	=31	=31	=31	=31
!LO:TX:t=P:problem=mixed beam	!	!	!	!	!	!	!	!	!	!	!	!	!	!	!	!	!	!
8F#\L	6	.	8f#/L	.	8dd\L	.	.	.	2r	.	8f#\	no-	8dd\	no-	2ryy	2ryy	.	.
8G\	6	.	8g/	.	8ee\	.	.	.	.	.	8g\	-men	8ee\	-men	.	.	.	.
8A\	4	.	8f#/	.	8dd\	.	.	.	.	.	8f#\	Do-	8dd\	Do-	.	.	.	.
8AA/J	#	.	8e/J	.	8cc#X\J	.	.	.	.	.	8e\	-mi-	8cc#X\	-mi-	.	.	.	.
!	!	!	!	!	!LO:LB:g=original	!	!	!	!	!	!	!	!LO:LB:g=original	!	!	!	!	!
=32	=32	=32	=32	=32	=32	=32	=32	=32	=32	=32	=32	=32	=32	=32	=32	=32	=32	=32
*tremolo	*	*	*	*	*	*	*	*	*	*	*	*	*	*	*	*	*	*
!	!	!LO:MO:mod=!null:null	!	!LO:MO:mod=!null:null	!	!LO:MO:mod=!null:null	!	!	!	!	!	!	!	!	!	!	!	!
!	!	!LO:DY:b:t=fo:rj	!	!LO:DY:b:rj	!	!LO:DY:b:rj	!	!	!	!	!	!LO:MO:mod=-ni.	!	!LO:MO:mod=-ni.	!	!	!	!
8D\L	.	f	8f#/L	f	8dd\L	f	8r	.	8r	.	8f#\	-ni	8dd\	-ni	2ryy	2ryy	8r	8r
8D\	.	.	8a/	.	16ff#\L	.	8D\	Ex-	8d\	Ex-	8a\	Ex-	8ff#\	Ex-	.	.	8d/L	8a\L
.	.	.	.	.	16dd\JJ	.	.	.	.	.	.	.	.	.	.	.	.	.
8D\	.	.	8a/	.	16a\LL	.	8D\	-cel-	8d\	-cel-	8a\	-cel-	8ff#\	-cel-	.	.	8d/	8a\
.	.	.	.	.	16dd\	.	.	.	.	.	.	.	.	.	.	.	.	.
8D\J	.	.	8a/J	.	16ff#\	.	8D\	-sus	8d\	-sus	8a\	-sus	8ff#\	-sus	.	.	8d/J	8a\J
.	.	.	.	.	16aa\JJ	.	.	.	.	.	.	.	.	.	.	.	.	.
*Xtremolo	*	*	*	*	*	*	*	*	*	*	*	*	*	*	*	*	*	*
=33	=33	=33	=33	=33	=33	=33	=33	=33	=33	=33	=33	=33	=33	=33	=33	=33	=33	=33
8D\L	6_ 4_	.	8b/L	.	16aa\LL	.	8D\	su-	8d\	su-	8b\	su-	8gg\	su-	2ryy	2ryy	4d/	4b\
.	.	.	.	.	16gg\	.	.	.	.	.	.	.	.	.	.	.	.	.
8D\	.	.	8b/	.	16bb\	.	8D\	-per	8d\	-per	8b\	-per	8gg\	-per	.	.	.	.
.	.	.	.	.	16gg\JJ	.	.	.	.	.	.	.	.	.	.	.	.	.
8D\	5_ 3_	.	8a/	.	16gg\LL	.	8D\	om-	8d\	om-	8a\	om-	8ff#\	om-	.	.	4d/	4a\
.	.	.	.	.	16ff#\	.	.	.	.	.	.	.	.	.	.	.	.	.
8D\J	.	.	8a/J	.	16aa\	.	8D\	-nes	8d\	-nes	8a\	-nes	8ff#\	-nes	.	.	.	.
.	.	.	.	.	16ff#\JJ	.	.	.	.	.	.	.	.	.	.	.	.	.
=34	=34	=34	=34	=34	=34	=34	=34	=34	=34	=34	=34	=34	=34	=34	=34	=34	=34	=34
*tremolo	*	*	*tremolo	*	*	*	*	*	*	*	*	*	*	*	*	*	*	*
!	!	!	!LO:TX:b:t=....:mod=	!	!	!	!	!	!	!	!	!	!	!	!	!	!	!
!	!	!	!LO:SIC:v:o=8g/L	!	!	!	!	!	!	!	!	!	!	!	!	!	!	!
8AA/L	7 #	.	8a/L	.	16ee\LL	.	8A\	gen-	8c#X\	gen-	8a\	gen-	8ee\	gen-	2ryy	2ryy	4a\	4a\
.	.	.	.	.	16gg\	.	.	.	.	.	.	.	.	.	.	.	.	.
!	!	!	!LO:SIC:v:o=8g/	!	!	!	!	!	!	!	!	!	!	!	!	!	!	!
8AA/	.	.	8a/	.	16cc#X\	.	8A\	-tes	8c#\	-tes	8a\	-tes	8ee\	-tes	.	.	.	.
.	.	.	.	.	16ee\JJ	.	.	.	.	.	.	.	.	.	.	.	.	.
!	!	!	!LO:SIC:v:o=8g/	!	!	!	!	!	!	!	!	!	!	!	!	!	!	!
8AA/	.	.	8a/	.	16a\LL	.	8A\	Do-	8c#\	Do-	8.a\	Do-	8.ee\	Do-	.	.	4a\	4a\
.	.	.	.	.	16cc#\	.	.	.	.	.	.	.	.	.	.	.	.	.
!	!	!	!LO:SIC:v:o=8g/J	!	!	!	!	!	!	!	!	!	!	!	!	!	!	!
8AA/J	.	.	8a/J	.	16ee\	.	8A\	-mi-	8c#\	-mi-	.	.	.	.	.	.	.	.
.	.	.	.	.	16gg\JJ	.	.	.	.	.	16a\	-mi-	16ee\	-mi-	.	.	.	.
*Xtrmeolo	*	*	*Xtremolo	*	*	*	*	*	*	*	*	*	*	*	*	*	*	*
!	!	!	!	!	!	!	!	!	!	!	!	!	!	!	!	!	!LO:LB:g=original	!
=35	=35	=35	=35	=35	=35	=35	=35	=35	=35	=35	=35	=35	=35	=35	=35	=35	=35	=35
!	!	!	!	!	!	!	!	!LO:MO:mod=-nus,	!	!LO:MO:mod=-nus,	!	!LO:MO:mod=-nus,	!	!LO:MO:mod=-nus,	!	!	!	!
8D\L	.	.	8a\L	.	16gg\LL	.	8D\	-nus	8d\	-nus	8a\	-nus	8dd\	-nus	2ryy	2ryy	4d/	4a\
.	.	.	.	.	16ff#\J	.	.	.	.	.	.	.	.	.	.	.	.	.
!	!	!	!	!	!	!	!	!	!	!LO:MO:mod=et	!	!	!	!	!	!	!	!
8D\	.	.	8a\J	.	8ff#\J	.	8D\	et	8d\	&	8a\	et	8ff#\	et	.	.	.	.
8F#\	6	.	8a\L	.	16dd\LL	.	8F#\	su-	8d\	su-	8a\	su-	8ff#\	su-	.	.	4r	4r
.	.	.	.	.	16ff#\	.	.	.	.	.	.	.	.	.	.	.	.	.
8A\J	#	.	8cc#X\J	.	16ee\	.	8A\	-per	8c#X\	-per	8a\	-per	8ee\	-per	.	.	.	.
.	.	.	.	.	16gg\JJ	.	.	.	.	.	.	.	.	.	.	.	.	.
!	!	!	!	!	!	!	!	!	!LO:LB:g=original	!	!	!	!	!	!	!	!	!
=36	=36	=36	=36	=36	=36	=36	=36	=36	=36	=36	=36	=36	=36	=36	=36	=36	=36	=36
*	*	*	*tremolo	*	*	*	*	*	*	*	*	*	*	*	*	*	*	*
!LO:TX:t=P:problem=mixed beam	!	!	!LO:TX:a:t=....:mod=	!	!	!	!	!LO:MO:mod=cae-	!	!LO:MO:mod=cae-	!	!	!	!	!	!	!	!
8d\L	.	.	8a\L	.	8ff#\L	.	4D\	Cae-	4A\	ce-	4f#\	cae-	4dd\	cae-	2ryy	2ryy	4d/	4a\
8D/	.	.	8a\	.	16aa\L	.	.	.	.	.	.	.	.	.	.	.	.	.
.	.	.	.	.	16ff#\JJ	.	.	.	.	.	.	.	.	.	.	.	.	.
8A\	#	.	8a\	.	16ee\LL	.	8A\L	-los	4c#X\	-los	4a\	-los	4ee\	-los	.	.	4a\	4a\
.	.	.	.	.	16cc#X\	.	.	.	.	.	.	.	.	.	.	.	.	.
8c#X\J	6	.	8a\J	.	16dd\	.	8c#X\J	.	.	.	.	.	.	.	.	.	.	.
.	.	.	.	.	16ee\JJ	.	.	.	.	.	.	.	.	.	.	.	.	.
*	*	*	*Xtremolo	*	*	*	*	*	*	*	*	*	*	*	*	*	*	*
=37	=37	=37	=37	=37	=37	=37	=37	=37	=37	=37	=37	=37	=37	=37	=37	=37	=37	=37
!	!	!	!	!	!	!	!	!	!	!	!	!	!	!	!	!	!LO:TX:t=P:problem=mixed beam	!
8d\L	.	.	8a\L	.	8ff#\	.	8d\	glo-	8d\	glo-	8a\	glo-	8ff#\	glo-	2ryy	2ryy	8d/L	8a\
8B\	.	.	8f#\J	.	4dd\	.	16B\	-ri-	16B\	-ri-	16f#\	-ri-	16dd\	-ri-	.	.	8b\	4dd\
.	.	.	.	.	.	.	16B\	-a	16B\	-a	16f#\	-a	16dd\	-a	.	.	.	.
!!LO:MO:ori
!	!	!	!	!	!	!	!	!	!	!	!LO:LB:g=original	!	!	!	!	!	!	!
=-	=-	=-	=-	=-	=-	=-	=-	=-	=-	=-	=-	=-	=-	=-	=-	=-	=-	=-
!!LO:MO:end
8G\	6 5	.	4e/	.	.	.	8G\L	e-	8B\L	e-	4e\	e-	8dd\L	e-	.	.	8b\	.
8A\J	#	.	.	.	8cc#X\	.	8A\J	.	8A\J	.	.	.	8cc#X\J	.	.	.	8a\J	8cc#X\
!	!	!	!	!	!	!	!LO:LB:g=original	!	!	!	!	!	!	!	!	!	!	!
=38	=38	=38	=38	=38	=38	=38	=38	=38	=38	=38	=38	=38	=38	=38	=38	=38	=38	=38
*tremolo	*	*	*	*	*	*	*	*	*	*	*	*	*	*	*	*	*	*
!	!	!	!	!	!	!	!	!LO:MO:mod=jus.	!	!LO:MO:mod=jus.	!	!LO:MO:mod=jus.	!	!LO:MO:mod=jus.	!	!	!	!
8D\L	.	.	8f#\L	.	16dd\LL	.	8D\	-jus	8A\	-jus	8f#\	-jus	8dd\	-jus	2ryy	2ryy	4d/	4dd\
.	.	.	.	.	16a\	.	.	.	.	.	.	.	.	.	.	.	.	.
!	!	!	!	!	!	!	!	!	!	!	!	!LO:MO:mod=Quis	!	!LO:MO:mod=Quis	!	!	!	!
8D\	.	.	8dd\J	.	16ff#\	.	8D\	Quis	8d\	Quis	8a\	quis	8ff#\	quis	.	.	.	.
.	.	.	.	.	16dd\JJ	.	.	.	.	.	.	.	.	.	.	.	.	.
!!LO:MO:ori
!	!	!	!	!	!LO:LB:g=original	!	!	!	!	!	!	!	!	!	!	!	!	!
=-	=-	=-	=-	=-	=-	=-	=-	=-	=-	=-	=-	=-	=-	=-	=-	=-	=-	=-
!!LO:MO:end
8D\	.	.	16ff#\LL	.	16aa\LL	.	8D\	sic-	8d\	sic-	8a\	sic-	8ff#\	sic-	.	.	8r	8r
.	.	.	16ee\	.	16gg\	.	.	.	.	.	.	.	.	.	.	.	.	.
8D\J	.	.	16ee\	.	16gg\	.	8D\	-ut	8d\	-ut	8a\	-ut	8ff#\	-ut	.	.	8d/	8a\
.	.	.	16dd\JJ	.	16ff#\JJ	.	.	.	.	.	.	.	.	.	.	.	.	.
!	!	!	!	!	!	!	!	!	!	!	!	!	!LO:LB:g=original	!	!	!	!	!
=39	=39	=39	=39	=39	=39	=39	=39	=39	=39	=39	=39	=39	=39	=39	=39	=39	=39	=39
*	*	*	*	*	*	*	*	*	*	*	*	*	*	*	*	*	*2\right	*
!	!	!	!	!	!	!	!	!	!	!	!	!	!	!	!	!	!LO:MO:mod=!null:null	!
!	!	!	!	!	!	!	!	!	!	!	!	!	!	!	!	!	!LO:TX:a:t=d	!
8AA/L	#	.	8cc#X\L	.	16ee\LL	.	8A\	Do-	8c#X\	Do-	8a\	Do-	8ee\	Do-	2ryy	2ryy	2a\	2a\
.	.	.	.	.	16a\	.	.	.	.	.	.	.	.	.	.	.	.	.
8AA/	.	.	16a\L	.	16cc#X\	.	16A\	-mi-	16c#\	-mi-	16a\	-mi-	16ee\	-mi-	.	.	.	.
.	.	.	16cc#\JJ	.	16ee\JJ	.	16A\	-nus	16c#\	-nus	16a\	-nus	16ee\	-nus	.	.	.	.
!	!	!	!	!	!	!	!	!	!	!LO:MO:mod=De-	!	!	!	!	!	!	!	!
8AA/	.	.	16ee\LL	.	16gg\LL	.	8A\	De-	8c#\	de-	8a\	De-	8ee\	De-	.	.	.	.
.	.	.	16dd\	.	16ff#\	.	.	.	.	.	.	.	.	.	.	.	.	.
8AA/J	.	.	16dd\	.	16ff#\	.	8A\	-us	8c#\	-us	8a\	-us	8ee\	-us	.	.	.	.
.	.	.	16cc#\JJ	.	16ee\JJ	.	.	.	.	.	.	.	.	.	.	.	.	.
=40	=40	=40	=40	=40	=40	=40	=40	=40	=40	=40	=40	=40	=40	=40	=40	=40	=40	=40
8D\L	.	.	8dd\L	.	16dd\LL	.	4D\	nos-	8d\	nos-	8a\	nos-	4ff#\	nos-	2ryy	2ryy	2d/	2a\
.	.	.	.	.	16a\	.	.	.	.	.	.	.	.	.	.	.	.	.
!	!	!	!	!	!	!	!	!	!	!LO:MO:mod=-ter,	!	!LO:MO:mod=-ter,	!	!	!	!	!	!
8D\	.	.	8a\	.	16ff#\	.	.	.	8d\	-ter	8a\	-ter	.	.	.	.	.	.
.	.	.	.	.	16dd\JJ	.	.	.	.	.	.	.	.	.	.	.	.	.
!	!	!	!	!	!	!	!	!LO:MO:mod=-ter,	!	!	!	!	!	!LO:MO:mod=-ter,	!	!	!	!
8D\	.	.	8a\	.	16a\LL	.	8D\	-ter	8d\	qui	8a\	qui	8ff#\	-ter	.	.	.	.
.	.	.	.	.	16dd\	.	.	.	.	.	.	.	.	.	.	.	.	.
8D\J	.	.	8a\J	.	16ff#\	.	8D\	qui	8d\	in	8a\	in	8ff#\	qui	.	.	.	.
.	.	.	.	.	16aa\JJ	.	.	.	.	.	.	.	.	.	.	.	.	.
*Xtremolo	*	*	*	*	*	*	*	*	*	*	*	*	*	*	*	*	*	*
!	!	!	!	!	!	!	!	!	!LO:PB:g=original	!	!	!	!	!	!	!	!	!
=41	=41	=41	=41	=41	=41	=41	=41	=41	=41	=41	=41	=41	=41	=41	=41	=41	=41	=41
*	*	*	*tremolo	*	*	*	*	*	*	*	*	*	*	*	*	*	*	*
8E\L	#6|	.	8a/L	.	8gg\L	.	8E\L	in	4c#X\	al-	4a\	al-	4ee\	in	2ryy	2ryy	4a\	2a\
!LO:SIC:v:o=8C\	!	!	!	!	!	!	!LO:SIC:v:o=8C\J	!	!	!	!	!	!	!	!	!	!	!
8C#\	6	.	8a/	.	16ee\L	.	8C#\J	.	.	.	.	.	.	.	.	.	.	.
.	.	.	.	.	16gg\JJ	.	.	.	.	.	.	.	.	.	.	.	.	.
8D\	.	.	8a/	.	16ff#\LL	.	8D\	al-	4d\	-tis	4a\	-tis	8ff#\	al-	.	.	4d\	.
.	.	.	.	.	16aa\	.	.	.	.	.	.	.	.	.	.	.	.	.
8F#\J	6	.	8a/J	.	16ff#\	.	8F#\	-tis	.	.	.	.	8ff#\	-tis	.	.	.	.
.	.	.	.	.	16dd\JJ	.	.	.	.	.	.	.	.	.	.	.	.	.
*	*	*	*Xtremolo	*	*	*	*	*	*	*	*	*	*	*	*	*	*	*
!	!	!	!LO:LB:g=original	!	!	!	!	!	!	!	!	!	!	!	!	!	!	!
=42	=42	=42	=42	=42	=42	=42	=42	=42	=42	=42	=42	=42	=42	=42	=42	=42	=42	=42
!LO:TX:t=P:problem=mixed beam	!	!	!	!	!	!	!	!	!	!	!	!	!	!	!	!	!	!
8A\L	4	.	8f#/L	.	8dd\L	.	16A\	ha-	16d\	ha-	16a\	ha-	16ff#\	ha-	2ryy	2ryy	8a\L	8a\L
.	.	.	.	.	.	.	16A\	-bi-	16d\	-bi-	16a\	-bi-	16ff#\	-bi-	.	.	.	.
!	!	!	!	!	!	!LO:MO:mod=-tat,	!	!LO:MO:mod=-tat,	!LO:SIC:v:o=8c\	!LO:MO:mod=-tat,	!	!LO:MO:mod=-tat,	!	!LO:MO:mod=-tat,	!	!	!	!
8AA/	.	.	8e/J	.	8cc#X\J	.	8AA/	-lal	8c#\	-tat	8a\	-tat	8ee\	-tal	.	.	8a\J	8a\J
!	!	!	!	!	!	!	!	!	!LO:SIC:v:o=8c\	!	!	!	!	!	!	!	!	!
8A\	#	.	16e/LL	.	16a\LL	.	8AA/	et	8c#\	et	8a\	et	8ee\	et	.	.	4r	4r
.	.	.	16a/	.	16cc#\	.	.	.	.	.	.	.	.	.	.	.	.	.
!	!	!	!	!	!	!	!	!	!LO:SIC:v:o=8c\	!	!	!	!	!	!	!	!	!
8A\J	.	.	16cc#X/	.	16ee\	.	8A\	hu-	8c#\	hu-	8a\	hu-	8ee\	hu-	.	.	.	.
.	.	.	16ee/JJ	.	16gg\JJ	.	.	.	.	.	.	.	.	.	.	.	.	.
!LO:LB:g=original	!	!	!	!	!	!	!	!	!	!	!	!	!	!	!	!	!	!
=43	=43	=43	=43	=43	=43	=43	=43	=43	=43	=43	=43	=43	=43	=43	=43	=43	=43	=43
!	!	!	!	!	!	!	!	!	!LO:TX:t=P:pion.SIC=c#?:problem	!	!	!	!	!	!	!	!LO:TX:a:t=1:mod=	!LO:TX:a:t=1:mod=
8A\L	.	.	8dd\L	.	8ff#\L	.	8A\	-mi-	8c\	-mi-	8a\	-mi-	8ff#\	-mi-	2ryy	2ryy	2r	2r
!	!	!	!LO:TX:t=P:pion.SIC=c#?:problem	!	!	!	!	!	!	!	!	!	!	!	!	!	!	!
8A\	7	.	8cc\J	.	8ee\J	.	16A\	-li-	16c\	-li-	16a\	-li-	16ee\	-li-	.	.	.	.
.	.	.	.	.	.	.	16A\	-a	16c\	-a	16a\	-a	16ee\	-a	.	.	.	.
!!LO:MO:ori
!	!	!	!	!	!	!	!LO:LB:g=original	!	!	!	!LO:LB:g=original	!	!	!	!	!	!	!
=-	=-	=-	=-	=-	=-	=-	=-	=-	=-	=-	=-	=-	=-	=-	=-	=-	=-	=-
!!LO:MO:end
!	!	!	!	!	!	!	!LO:SIC:o=8A\	!LO:MO:mod=re-	!	!	!	!	!LO:SIC:o=(8ee\L	!	!	!	!	!
8A\	6	.	16g/LL	.	16ee\LL	.	8A\L	res-	4c\	re-	8g\L	re-	8ee\L	re-	.	.	.	.
.	.	.	16b/	.	16gg\	.	.	.	.	.	.	.	.	.	.	.	.	.
!	!	!	!	!	!	!	!LO:SIC:o=8A#X\	!LO:MO:mod=.	!	!	!	!	!	!	!	!	!	!
8A#X\J	5	.	16a/	.	16ff#\	.	8A#X\J	-pi-	.	.	16a\L	.	16ff#\L	.	.	.	.	.
!	!	!	!	!	!	!	!	!	!	!	!	!	!LO:SIC:o=16ee\JJ)	!	!	!	!	!
.	.	.	16g/JJ	.	16ee\JJ	.	.	.	.	.	16g\JJ	.	16ee\JJ	.	.	.	.	.
!	!	!	!	!	!	!	!	!	!	!	!	!	!	!	!	!	!	!LO:LB:g=original
=44	=44	=44	=44	=44	=44	=44	=44	=44	=44	=44	=44	=44	=44	=44	=44	=44	=44	=44
!LO:TX:t=P:problem=mixed beam	!	!	!	!	!	!	!	!LO:MO:mod=-spi-	!	!	!	!	!	!	!	!	!	!
8B\L	4	.	8g/L	.	8ee\L	.	8B\	-cit	8B\	-spi-	8g\	-spi-	8ee\	-spi-	2ryy	2ryy	2B/	2b\
!	!	!	!	!	!	!	!	!LO:MO:mod=-cit	!	!	!	!	!	!	!	!	!	!
8BB/	#	.	8f#/	.	8dd#X\J	.	8BB/	in	8B\	-cit	8f#\	-cit	8dd#X\	-cit	.	.	.	.
!	!	!	!	!	!	!	!	!LO:MO:mod=in	!	!	!	!	!	!	!	!	!	!
8B\	#	.	8f#/	.	16b\LL	.	4B\	Cae-	4B\	in	4f#\	in	4dd#\	in	.	.	.	.
.	.	.	.	.	16dd#\	.	.	.	.	.	.	.	.	.	.	.	.	.
8B\J	.	.	8f#/J	.	16ff#\	.	.	.	.	.	.	.	.	.	.	.	.	.
.	.	.	.	.	16aa\JJ	.	.	.	.	.	.	.	.	.	.	.	.	.
!	!	!	!	!	!LO:LB:g=original	!	!	!	!	!	!	!	!	!	!	!	!	!
=45	=45	=45	=45	=45	=45	=45	=45	=45	=45	=45	=45	=45	=45	=45	=45	=45	=45	=45
*tremolo	*	*	*	*	*	*	*	*	*	*	*	*	*	*	*	*	*	*
!	!	!	!	!	!	!	!LO:MO:mod=!null:null	!	!	!	!	!	!	!	!	!	!	!
!	!	!	!	!	!	!	!LO:N:vis=4	!LO:MO:mod=cae-	!	!LO:MO:mod=cae-	!	!	!	!	!	!	!	!
8E\L	.	.	8g/L	.	16gg\LL	.	8E\	-lo	8B\	ce-	8g\	cae-	8ee\	cae-	2ryy	2ryy	2B/	2b\
.	.	.	.	.	16ee\	.	.	.	.	.	.	.	.	.	.	.	.	.
!	!	!	!	!	!	!	!LO:SIC:o=8E\yy	!	!	!	!	!	!	!	!	!	!	!
8E\	.	.	8g/	.	16b\	.	8E\	-lo	8B\	-lo	8g\	-lo	8ee\	-lo	.	.	.	.
.	.	.	.	.	16ee\JJ	.	.	.	.	.	.	.	.	.	.	.	.	.
!	!	!	!	!	!	!	!	!	!	!LO:MO:mod=et	!	!	!	!	!	!	!	!
8E\	.	.	8b/	.	16gg\LL	.	8E\	et	8B\	&	8g\	et	8ee\	et	.	.	.	.
.	.	.	.	.	16ee\	.	.	.	.	.	.	.	.	.	.	.	.	.
!	!	!	!	!	!LO:SIC:v:o=16ccc\	!	!	!	!	!	!	!	!	!	!	!	!	!
8E\J	.	.	8b/J	.	16bb\	.	8E\	in	8B\	in	8g\	in	8ee\	in	.	.	.	.
.	.	.	.	.	16gg\JJ	.	.	.	.	.	.	.	.	.	.	.	.	.
*Xtremolo	*	*	*	*	*	*	*	*	*	*	*	*	*	*	*	*	*	*
!	!	!	!	!	!	!	!	!	!	!	!	!	!LO:LB:g=original	!	!	!	!	!
=46	=46	=46	=46	=46	=46	=46	=46	=46	=46	=46	=46	=46	=46	=46	=46	=46	=46	=46
!LO:TX:t=P:problem=mixed beam	!	!	!	!	!	!	!LO:SIC:o=4A\	!	!	!	!LO:SIC:o=4a\	!	!LO:SIC:o=4ff#\	!	!	!	!LO:TX:t=P:problem=mixed beam	!
8A\L	.	.	8a\L	.	8ff#\L	.	(4A\	ter-	(4c\	ter-	(4a\	ter-	(4ff#\	ter-	2ryy	2ryy	8a\L	8cc\L
8A\	6	.	16cc\L	.	16aa\L	.	.	.	.	.	.	.	.	.	.	.	8a\	8cc\
.	.	.	16a\JJ	.	16ff#\JJ	.	.	.	.	.	.	.	.	.	.	.	.	.
!	!	!	!	!	!	!	!LO:TX:t=P:problem=mixed beam	!	!	!	!	!	!	!	!	!	!	!
8B\	4	.	8g/L	.	8ee\L	.	8B\L	.	4B\)	.	8g\L	.	8ee\L	.	.	.	8b\	8b\
!	!	!	!	!	!	!	!LO:SIC:o=8BB/J	!	!	!	!LO:SIC:o=8f#\J	!	!LO:SIC:o=8dd#X\J	!	!	!	!	!
8BB/J	#	.	8f#/J	.	8dd#X\J	.	8BB/J)	.	.	.	8f#\J)	.	8dd#X\J)	.	.	.	8B/J	8b\J
!	!	!	!	!	!	!	!	!	!LO:LB:g=original	!	!	!	!	!	!	!	!	!
=47	=47	=47	=47	=47	=47	=47	=47	=47	=47	=47	=47	=47	=47	=47	=47	=47	=47	=47
!	!	!	!	!	!LO:TX:t=P:problem=mixed beam	!	!	!LO:MO:mod=ra?	!	!LO:MO:mod=ra?	!	!LO:MO:mod=ra?	!	!LO:MO:mod=ra?	!	!	!	!
4E\	.	.	4g/	.	16ee\LL	.	4E\	-ra	4B\	-ra	4g\	-ra	4ee\	-ra	2ryy	2ryy	4B/	4b\
.	.	.	.	.	16e/	.	.	.	.	.	.	.	.	.	.	.	.	.
.	.	.	.	.	16g/	.	.	.	.	.	.	.	.	.	.	.	.	.
.	.	.	.	.	16b/JJ	.	.	.	.	.	.	.	.	.	.	.	.	.
8r	.	.	8r	.	16ee\LL	.	4r	.	4r	.	4r	.	4r	.	.	.	8r	8r
.	.	.	.	.	16dd\	.	.	.	.	.	.	.	.	.	.	.	.	.
!LO:MO:mod=!LO&colon;TX&colon;a&colon;i&colon;t=Solo	!	!	!	!	!	!	!	!	!	!	!	!	!	!	!	!	!	!
!LO:TX:b:i:t=Solo	!	!	!	!	!	!	!	!	!	!	!	!	!	!	!	!	!	!
8G\	6	.	8e/	.	16cc\	.	.	.	.	.	.	.	.	.	.	.	8b\	8b\
.	.	.	.	.	16b\JJ	.	.	.	.	.	.	.	.	.	.	.	.	.
=48	=48	=48	=48	=48	=48	=48	=48	=48	=48	=48	=48	=48	=48	=48	=48	=48	=48	=48
!LO:TX:t=P:problem=mixed beam	!	!	!	!	!	!	!LO:TX:a:t=6:mod=	!	!LO:TX:a:t=13:mod=	!	!LO:TX:a:t=1:mod=	!	!LO:TX:a:t=13:mod=	!	!	!	!LO:TX:t=P:problem=mixed beam	!
!	!	!	!	!	!	!	!LO:N:vis=00	!	!LO:N:vis=00	!	!	!	!LO:N:vis=00	!	!	!	!	!
8A\L	.	.	8e/L	.	8cc\L	.	0r	.	0r	.	2r	.	0r	.	2ryy	2ryy	8a\L	8cc\L
8A\	6	.	16cc/L	.	16aa\L	.	.	.	.	.	.	.	.	.	.	.	8a\	8cc\
.	.	.	16a/JJ	.	16ff#\JJ	.	.	.	.	.	.	.	.	.	.	.	.	.
8B\	4	.	16a/LL	.	8ee\L	.	.	.	.	.	.	.	.	.	.	.	8b\	8b\
.	.	.	16g/	.	.	.	.	.	.	.	.	.	.	.	.	.	.	.
8BB/J	#	.	16g/	.	8dd#X\J	.	.	.	.	.	.	.	.	.	.	.	8B/J	8b\J
.	.	.	16f#/JJ	.	.	.	.	.	.	.	.	.	.	.	.	.	.	.
=49	=49	=49	=49	=49	=49	=49	=49	=49	=49	=49	=49	=49	=49	=49	=49	=49	=49	=49
!	!	!	!	!LO:MO:mod=!null:null	!	!LO:MO:mod=!null:null	!	!	!	!	!	!	!	!	!	!	!	!
!	!	!	!	!LO:DY:b:rj	!	!LO:DY:b:rj	!	!	!	!	!LO:TX:a:i:t=Solo	!	!	!	!	!	!	!
8E\L	.	.	8g/L	f	4ee\	f	.	.	.	.	8r	.	.	.	2ryy	2ryy	4B/	4b\
8E\	.	.	8b/	.	.	.	.	.	.	.	8e\	Su-	.	.	.	.	.	.
8D#X\	6	.	8b/	.	16ee\LL	.	.	.	.	.	16e\LL	-sci-	.	.	.	.	4r	4r
!	!	!	!	!	!LO:SIC:v:o=16dd\	!	!	!	!	!	!	!	!	!	!	!	!	!
.	.	.	.	.	16dd#\	.	.	.	.	.	16f#\JJ	.	.	.	.	.	.	.
8BB\J	.	.	8b/J	.	16ee\	.	.	.	.	.	16g\LL	-tans	.	.	.	.	.	.
.	.	.	.	.	16ff#\JJ	.	.	.	.	.	16a\JJ	.	.	.	.	.	.	.
=50	=50	=50	=50	=50	=50	=50	=50	=50	=50	=50	=50	=50	=50	=50	=50	=50	=50	=50
!LO:TX:t=P:problem=mixed beam	!	!	!	!	!	!	!	!	!	!	!LO:SIC:o=8b\	!	!	!	!	!	!LO:TX:a:t=10:mod=	!LO:TX:a:t=10:mod=
!	!	!	!	!	!	!	!	!	!	!	!	!	!	!	!	!	!LO:N:vis=00	!LO:N:vis=00
8E\L	.	.	8g/L	.	8.gg\L	.	.	.	.	.	8.b\	a	.	.	2ryy	2ryy	0r	0r
!	!	!	!	!	!	!	!	!	!	!	!LO:SIC:o=(16b\LL	!	!	!	!	!	!	!
8E\	.	.	8e/	.	.	.	.	.	.	.	.	.	.	.	.	.	.	.
.	.	.	.	.	16aa\Jk	.	.	.	.	.	16cc\JJ	.	.	.	.	.	.	.
!	!	!	!	!	!	!	!	!	!	!	!LO:SIC:o=16b\LL)	!	!	!	!	!	!	!
8B\	4	.	8B/	.	16gg\LL	.	.	.	.	.	16b\LL	ter-	.	.	.	.	.	.
.	.	.	.	.	16ff#\	.	.	.	.	.	16a\JJ	.	.	.	.	.	.	.
8BB/J	#	.	8B/J	.	16ee\	.	.	.	.	.	16g\LL	-ra	.	.	.	.	.	.
!	!	!	!	!	!LO:SIC:v:o=16dd\JJ	!	!	!	!	!	!	!	!	!	!	!	!	!
.	.	.	.	.	16dd#\JJ	.	.	.	.	.	16f#\JJ	.	.	.	.	.	.	.
!	!	!	!LO:LB:g=original	!	!	!	!	!	!	!	!LO:LB:g=original	!	!	!	!	!	!	!
=51	=51	=51	=51	=51	=51	=51	=51	=51	=51	=51	=51	=51	=51	=51	=51	=51	=51	=51
8E\L	.	.	8B/L	.	4ee\	.	.	.	.	.	16g\	in-	.	.	2ryy	2ryy	.	.
.	.	.	.	.	.	.	.	.	.	.	16f#\	-o-	.	.	.	.	.	.
!	!	!	!	!	!	!	!	!	!	!	!	!LO:MO:mod=-pem,	!	!	!	!	!	!
8G\	6	.	8B/	.	.	.	.	.	.	.	8e\	-pem	.	.	.	.	.	.
!	!	!	!	!	!	!	!	!	!	!	!	!LO:MO:mod=et	!	!	!	!	!	!
8D#X\	.	.	8a/	.	8ff#\L	.	.	.	.	.	8b\	&	.	.	.	.	.	.
8E\J	6	.	8g/J	.	8gg\J	.	.	.	.	.	8b\	de	.	.	.	.	.	.
=52	=52	=52	=52	=52	=52	=52	=52	=52	=52	=52	=52	=52	=52	=52	=52	=52	=52	=52
!LO:TX:t=P:problem=mixed beam	!	!	!	!	!	!	!LO:N:vis=0	!	!LO:N:vis=00	!	!	!	!LO:N:vis=00	!	!	!	!	!
8F#\L	4	.	8f#/L	.	8ff#\L	.	1r	.	0r	.	8a\	ster-	0r	.	2ryy	2ryy	.	.
8BB/	#	.	8a/	.	16ee\L	.	.	.	.	.	16g\	-co-	.	.	.	.	.	.
.	.	.	.	.	16dd#X\JJ	.	.	.	.	.	16f#\	-re	.	.	.	.	.	.
8E\	.	.	8g/	.	8ee\L	.	.	.	.	.	8g\	e-	.	.	.	.	.	.
8A\J	6	.	8f#/J	.	8ff#\J	.	.	.	.	.	16a\	-ri-	.	.	.	.	.	.
.	.	.	.	.	.	.	.	.	.	.	16a\	-gens	.	.	.	.	.	.
!LO:LB:g=original	!	!	!	!	!LO:LB:g=original	!	!	!	!	!	!	!	!	!	!	!	!	!
=53	=53	=53	=53	=53	=53	=53	=53	=53	=53	=53	=53	=53	=53	=53	=53	=53	=53	=53
8G\L	6	.	8g/L	.	4.ee\	.	.	.	.	.	(4g\	pau-	.	.	2ryy	2ryy	.	.
8c\	.	.	8c/	.	.	.	.	.	.	.	.	.	.	.	.	.	.	.
8A\	6	.	8c/	.	.	.	.	.	.	.	8.f#\)	.	.	.	.	.	.	.
8B\J	#	.	8B/J	.	8dd#X\	.	.	.	.	.	.	.	.	.	.	.	.	.
.	.	.	.	.	.	.	.	.	.	.	16f#\	-pe-	.	.	.	.	.	.
=54	=54	=54	=54	=54	=54	=54	=54	=54	=54	=54	=54	=54	=54	=54	=54	=54	=54	=54
!	!	!	!LO:TX:t=P:problem=mixed beam	!	!	!	!	!	!	!	!	!LO:MO:mod=-rem.	!	!	!	!	!LO:N:vis=00	!LO:N:vis=00
8E\L	.	.	8B/L	.	4ee\	.	8r	.	.	.	4e\	-rem	.	.	2ryy	2ryy	0r	0r
8E\	.	.	8b\J	.	.	.	8B\	Ut	.	.	.	.	.	.	.	.	.	.
8D#X\	6	.	8r	.	8r	.	16B\LL	col-	.	.	4r	.	.	.	.	.	.	.
.	.	.	.	.	.	.	16A\	.	.	.	.	.	.	.	.	.	.	.
8D#\J	5	.	8b\	.	8ff#\	.	16G\	.	.	.	.	.	.	.	.	.	.	.
.	.	.	.	.	.	.	16A\JJ	.	.	.	.	.	.	.	.	.	.	.
=55	=55	=55	=55	=55	=55	=55	=55	=55	=55	=55	=55	=55	=55	=55	=55	=55	=55	=55
!	!	!	!	!	!	!	!	!	!	!	!LO:TX:a:t=6:mod=	!	!	!	!	!	!	!
!	!	!	!	!	!	!	!	!	!	!	!LO:N:vis=00	!	!	!	!	!	!	!
8E\L	.	.	4b\	.	4ee\	.	8B\	-lo-	.	.	0r	.	.	.	2ryy	2ryy	.	.
8E\	.	.	.	.	.	.	16G\LL	-cet	.	.	.	.	.	.	.	.	.	.
.	.	.	.	.	.	.	16B\JJ	.	.	.	.	.	.	.	.	.	.	.
8A\	6	.	4cc\	.	8ff#\L	.	8A\L	e-	.	.	.	.	.	.	.	.	.	.
8A#X\J	5	.	.	.	8ee\J	.	8G\J	.	.	.	.	.	.	.	.	.	.	.
=56	=56	=56	=56	=56	=56	=56	=56	=56	=56	=56	=56	=56	=56	=56	=56	=56	=56	=56
!	!	!	!	!	!	!	!LO:MO:mod=!null:null	!	!	!	!	!	!	!	!	!	!	!
!	!	!	!	!	!	!	!LO:N:vis=4	!	!LO:N:vis=00	!	!	!	!LO:N:vis=00	!	!	!	!	!
8B\L	#	.	4b\	.	4dd#X\	.	8F#\	-um	0r	.	.	.	0r	.	2ryy	2ryy	.	.
8D#X\	6 5	.	.	.	.	.	8A\L	cum	.	.	.	.	.	.	.	.	.	.
8E\	.	.	4g\	.	4ee\	.	8G\J	.	.	.	.	.	.	.	.	.	.	.
8G\J	6	.	.	.	.	.	16F#\LL	prin-	.	.	.	.	.	.	.	.	.	.
.	.	.	.	.	.	.	16E\JJ	.	.	.	.	.	.	.	.	.	.	.
=57	=57	=57	=57	=57	=57	=57	=57	=57	=57	=57	=57	=57	=57	=57	=57	=57	=57	=57
!LO:TX:t=P:problem=mixed beam	!	!	!	!	!	!	!	!	!	!	!	!	!	!	!	!	!	!
8B\L	4	.	8g/L	.	8ee\L	.	8B\	-ci-	.	.	.	.	.	.	2ryy	2ryy	.	.
!	!	!	!	!	!LO:SIC:v:o=8dd\J	!	!	!	!	!	!	!	!	!	!	!	!	!
8BB/	#	.	8f#/J	.	8dd#\J	.	8B\	-pi-	.	.	.	.	.	.	.	.	.	.
!	!	!	!	!	!	!	!	!LO:MO:mod=-bus,	!	!	!	!	!	!	!	!	!	!
8D#X/	6	.	[>4b\	.	4ff#\	.	8BB/	-buſ	.	.	.	.	.	.	.	.	.	.
!	!	!	!	!	!	!	!LO:MO:mod=!null:null	!	!	!	!	!	!	!	!	!	!	!
!	!	!	!	!	!	!	!LO:N:vis=8	!	!	!	!	!	!	!	!	!	!	!
8D#/J	5	.	.	.	.	.	16B\	cum	.	.	.	.	.	.	.	.	.	.
!	!	!	!	!	!	!	!LO:MO:mod=!null:null	!	!	!	!	!	!	!	!	!	!	!
!	!	!	!	!	!	!	!LO:N:vis=8	!	!	!	!	!	!	!	!	!	!	!
!	!	!	!	!	!	!	!LO:SIC:o=16An\	!	!	!	!	!	!	!	!	!	!	!
.	.	.	.	.	.	.	16A\	prin-	.	.	.	.	.	.	.	.	.	.
!	!	!	!	!	!	!	!LO:LB:g=original	!	!	!	!	!	!	!	!	!	!	!
=58	=58	=58	=58	=58	=58	=58	=58	=58	=58	=58	=58	=58	=58	=58	=58	=58	=58	=58
!	!	!	!	!	!	!	!	!	!	!	!	!	!	!	!	!	!LO:N:vis=0	!LO:N:vis=0
8E\L	3	.	4b\]	.	2ee\	.	16G\	-ci-	.	.	.	.	.	.	2ryy	2ryy	1r	1r
.	.	.	.	.	.	.	16G\	-pi-	.	.	.	.	.	.	.	.	.	.
!LO:SIC:o=8Dn\	!	!	!	!	!	!	!	!	!	!	!	!	!	!	!	!	!	!
8D\	#4| 2	.	.	.	.	.	8G#X\	-bus	.	.	.	.	.	.	.	.	.	.
8C\	6	.	[>4a\	.	.	.	8A\	po-	.	.	.	.	.	.	.	.	.	.
8C#X\J	n5r	.	.	.	.	.	16Gn\	-pu-	.	.	.	.	.	.	.	.	.	.
.	.	.	.	.	.	.	16G\	-li	.	.	.	.	.	.	.	.	.	.
=59	=59	=59	=59	=59	=59	=59	=59	=59	=59	=59	=59	=59	=59	=59	=59	=59	=59	=59
!	!	!	!	!	!	!	!	!	!	!	!LO:N:vis=0	!	!	!	!	!	!	!
8D/L	.	.	4a\]	.	2ddn\	.	8F#\	su-	.	.	1r	.	.	.	2ryy	2ryy	.	.
!	!	!	!	!	!	!	!LO:MO:mod=!null:null	!	!	!	!	!	!	!	!	!	!	!
!LO:SIC:o=8Cn/	!	!	!	!	!	!	!LO:N:vis=4	!LO:MO:mod=-i,	!	!	!	!	!	!	!	!	!	!
8C/	4 2	.	.	.	.	.	8F#\	-i	.	.	.	.	.	.	.	.	.	.
8BB/	6	.	4g\	.	.	.	8G\L	po-	.	.	.	.	.	.	.	.	.	.
8GG/J	.	.	.	.	.	.	16A\L	.	.	.	.	.	.	.	.	.	.	.
.	.	.	.	.	.	.	16B\JJ	.	.	.	.	.	.	.	.	.	.	.
!	!	!	!	!	!	!	!	!	!	!	!	!	!	!	!	!	!LO:LB:g=original	!
=60	=60	=60	=60	=60	=60	=60	=60	=60	=60	=60	=60	=60	=60	=60	=60	=60	=60	=60
8C/L	.	.	8r	.	8r	.	16c\LL	.	2r	.	.	.	2r	.	2ryy	2ryy	8r	8r
.	.	.	.	.	.	.	16A\JJ	.	.	.	.	.	.	.	.	.	.	.
8C/	6	.	8cc\L	.	8aa\L	.	16B\	-pu-	.	.	.	.	.	.	.	.	8a\L	8cc\L
.	.	.	.	.	.	.	16c\	-li	.	.	.	.	.	.	.	.	.	.
!	!	!	!	!	!	!	!LO:TX:t=P:problem=mixed beam	!	!	!	!	!	!	!	!	!	!	!
8D/	4	.	8b\	.	8gg\	.	8d\L	su-	.	.	.	.	.	.	.	.	8g\	8b\
8DD/J	#	.	8a\J	.	8ff#\J	.	8D/J	.	.	.	.	.	.	.	.	.	8d\J	8a\J
=61	=61	=61	=61	=61	=61	=61	=61	=61	=61	=61	=61	=61	=61	=61	=61	=61	=61	=61
*	*	*	*tremolo	*	*	*	*	*	*	*	*	*	*	*	*	*	*	*
!	!	!LO:MO:mod=!null:null	!	!	!	!LO:MO:mod=!null:null	!	!	!	!	!	!	!	!	!	!	!	!
!LO:TX:t=P:problem=mixed beam	!	!LO:DY:b:t=for	!	!LO:DY:b	!	!LO:DY:b:rj	!	!LO:MO:mod=-i.	!	!	!	!	!	!	!	!	!	!
8GG/L	.	f	8b\L	f	16gg\LL	f	8G\	-i	8r	.	8r	.	8r	.	2ryy	2ryy	2g\	2b\
.	.	.	.	.	16dd\	.	.	.	.	.	.	.	.	.	.	.	.	.
!	!	!	!	!	!	!	!	!LO:MO:mod=Qui	!	!LO:MO:mod=Qui	!	!	!	!	!	!	!	!
8G\	.	.	8b\	.	16b\	.	8G\	Quis	8B\	Qvi	8b\	Qui	8dd\	Qui	.	.	.	.
.	.	.	.	.	16g\JJ	.	.	.	.	.	.	.	.	.	.	.	.	.
8G\	.	.	8b\	.	16dd\LL	.	8G\	ha-	8B\	ha-	8b\	ha-	8dd\	ha-	.	.	.	.
.	.	.	.	.	16b\	.	.	.	.	.	.	.	.	.	.	.	.	.
8G\J	.	.	8b\J	.	16gg\	.	8G\	-bi-	8B\	-bi-	8b\	-bi-	8dd\	-bi-	.	.	.	.
.	.	.	.	.	16dd\JJ	.	.	.	.	.	.	.	.	.	.	.	.	.
=62	=62	=62	=62	=62	=62	=62	=62	=62	=62	=62	=62	=62	=62	=62	=62	=62	=62	=62
*tremolo	*	*	*	*	*	*	*	*	*	*	*	*	*	*	*	*	*	*
!	!	!	!	!	!	!	!	!	!	!LO:MO:mod=-ta-	!	!	!	!	!	!	!	!
8F#\L	6 5	.	8a\L	.	16cc\LL	.	4F#\	-ta-	4A\	-la-	4cc\	-ta-	4dd\	-ta-	2ryy	2ryy	2d/	2a\
.	.	.	.	.	16a\	.	.	.	.	.	.	.	.	.	.	.	.	.
8F#\	.	.	8a\	.	16ff#\	.	.	.	.	.	.	.	.	.	.	.	.	.
.	.	.	.	.	16cc\JJ	.	.	.	.	.	.	.	.	.	.	.	.	.
8F#\	.	.	8a\	.	16aa\LL	.	4F#\	-re	4A\	-re	4cc\	-re	4dd\	-re	.	.	.	.
.	.	.	.	.	16ff#\	.	.	.	.	.	.	.	.	.	.	.	.	.
8F#\J	.	.	8a\J	.	16dd\	.	.	.	.	.	.	.	.	.	.	.	.	.
.	.	.	.	.	16cc\JJ	.	.	.	.	.	.	.	.	.	.	.	.	.
!LO:LB:g=original	!	!	!	!	!LO:LB:g=original	!	!	!	!	!	!	!	!	!	!	!	!	!
=63	=63	=63	=63	=63	=63	=63	=63	=63	=63	=63	=63	=63	=63	=63	=63	=63	=63	=63
!	!	!	!	!	!	!	!	!LO:MO:mod=fa-	!	!	!	!	!	!	!	!	!	!
8G\L	.	.	8b\L	.	16b\LL	.	4G\	fe-	4G\	fa-	4b\	fa-	4dd\	fa-	2ryy	2ryy	2g\	2b\
.	.	.	.	.	16dd\	.	.	.	.	.	.	.	.	.	.	.	.	.
8G\	.	.	8b\	.	16b\	.	.	.	.	.	.	.	.	.	.	.	.	.
.	.	.	.	.	16g\JJ	.	.	.	.	.	.	.	.	.	.	.	.	.
8G\	.	.	8b\	.	16dd\LL	.	4G\	-cit	4G\	-cit	4b\	-cit	4dd\	-cit	.	.	.	.
.	.	.	.	.	16b\	.	.	.	.	.	.	.	.	.	.	.	.	.
8G\J	.	.	8b\J	.	16gg\	.	.	.	.	.	.	.	.	.	.	.	.	.
.	.	.	.	.	16dd\JJ	.	.	.	.	.	.	.	.	.	.	.	.	.
*Xtremolo	*	*	*Xtremolo	*	*	*	*	*	*	*	*	*	*	*	*	*	*	*
!	!	!	!	!	!	!	!	!	!	!	!LO:LB:g=original	!	!	!	!	!	!	!
=64	=64	=64	=64	=64	=64	=64	=64	=64	=64	=64	=64	=64	=64	=64	=64	=64	=64	=64
!	!	!	!	!	!	!	!	!LO:MO:mod=ste-	!	!	!	!	!	!LO:MO:mod=ste-	!	!	!	!
8G\L	.	.	8b\L	.	8dd\L	.	8G\	Ste-	8d\	ste-	8b\	ste-	8dd\	ster-	2ryy	2ryy	4b\	4dd\
!	!	!	!	!	!	!	!	!LO:MO:mod=-ri-	!	!LO:MO:mod=-ri-	!	!LO:MO:mod=-ri-	!	!LO:MO:mod=-ri-	!	!	!	!
8G\	.	.	16cc\L	.	16ee\L	.	8G\	-ril-	8d\	-ril-	8b\	-rjl-	8dd\	-ril-	.	.	.	.
.	.	.	16b\JJ	.	16dd\JJ	.	.	.	.	.	.	.	.	.	.	.	.	.
!!LO:MO:ori
!	!	!	!LO:LB:g=original	!	!	!	!	!	!	!	!	!	!	!	!	!	!	!
=-	=-	=-	=-	=-	=-	=-	=-	=-	=-	=-	=-	=-	=-	=-	=-	=-	=-	=-
!!LO:MO:end
8C/	6	.	16b\LL	.	16dd\LL	.	8C/	-lem	8e\	-lem	16b\LL	-lem	16dd\LL	-lem	.	.	8a\L	8cc\L
.	.	.	16a\	.	16cc\	.	.	.	.	.	16a\JJ	.	16cc\JJ	.	.	.	.	.
8C#X/J	5	.	16a\	.	16cc\	.	8C#X/	in	8e\	in	16a\LL	in	16cc\LL	in	.	.	8g\J	8b\J
.	.	.	16g\JJ	.	16b\JJ	.	.	.	.	.	16g\JJ	.	16b\JJ	.	.	.	.	.
!	!	!	!	!	!	!	!LO:LB:g=original	!	!	!	!	!	!	!	!	!	!	!
=65	=65	=65	=65	=65	=65	=65	=65	=65	=65	=65	=65	=65	=65	=65	=65	=65	=65	=65
!	!	!	!	!	!	!	!	!	!	!LO:MO:mod=do-	!	!	!	!LO:MO:mod=do-	!	!	!	!
8D/L	4	.	8g/L	.	8b\L	.	8D\	do-	8d\	Do-	8g\	do-	8b\	Do-	2ryy	2ryy	8g\L	8b\L
!	!	!	!	!	!	!	!	!LO:MO:mod=-mo,	!	!LO:MO:mod=-mo,	!	!LO:MO:mod=-mo,	!	!LO:MO:mod=-mo,	!	!	!	!
8DD/	3	.	8f#/	.	8a\J	.	8D\	-mo	8d\	-mo	8f#\	-mo	8a\	-mo	.	.	8d\J	8a\J
!	!	!	!	!	!	!	!	!LO:MO:mod=ma-	!	!	!	!	!	!LO:MO:mod=ma-	!	!	!	!
8F#\	6_	.	8a/	.	16cc\LL	.	8F#\	Ma-	8c\	ma-	8a\	ma-	8dd\	Ma-	.	.	4a\	4cc\
.	.	.	.	.	16a\	.	.	.	.	.	.	.	.	.	.	.	.	.
!	!	!	!	!	!	!	!	!LO:MO:mod=-trem	!	!	!	!	!	!LO:MO:mod=-trem	!	!	!	!
8F#\J	.	.	8a/J	.	16dd\	.	8F#\	-lrem	8c\	-trem	8a\	-trem	8dd\	-tre	.	.	.	.
.	.	.	.	.	16cc\JJ	.	.	.	.	.	.	.	.	.	.	.	.	.
!	!	!	!	!	!	!	!	!	!LO:LB:g=original	!	!	!	!	!	!	!	!	!
=66	=66	=66	=66	=66	=66	=66	=66	=66	=66	=66	=66	=66	=66	=66	=66	=66	=66	=66
*	*	*	*tremolo	*	*	*	*	*	*	*	*	*	*	*	*	*	*	*
8G\L	x	.	8d/L	.	16cc\LL	.	8G\	fi-	8B\	fi-	8b\	fi-	8dd\	fi-	2ryy	2ryy	4g\	4b\
.	.	.	.	.	16b\	.	.	.	.	.	.	.	.	.	.	.	.	.
8G\	.	.	8d/	.	16dd\	.	8G\	-li-	8B\	-li-	8b\	-li-	8dd\	-li-	.	.	.	.
.	.	.	.	.	16b\JJ	.	.	.	.	.	.	.	.	.	.	.	.	.
!	!	!	!	!	!	!	!	!	!LO:MO:mod=!null:null	!	!	!	!	!	!	!	!	!
!	!	!	!	!	!	!	!	!	!LO:N:vis=8.	!	!	!	!	!	!	!	!	!
8F#\	6_ 5_	.	8d/	.	16b\LL	.	8F#\	-o-	8c\	-o-	8a\	-o-	8dd\	-o-	.	.	4d\	4a\
.	.	.	.	.	16a\	.	.	.	.	.	.	.	.	.	.	.	.	.
8F#\J	.	.	8d/J	.	16dd\	.	16F#\	-rum	16c\	-rum	16a\	-rum	16dd\	-rum	.	.	.	.
!	!	!	!	!	!	!	!	!	!LO:MO:mod=!null:null	!	!	!	!	!	!	!	!	!
!	!	!	!	!	!	!	!	!	!LO:N:vis=8	!LO:MO:mod=lae-	!	!	!	!	!	!	!	!
.	.	.	.	.	16cc\JJ	.	16F#\	lae-	16c\	le-	16a\	lae-	16dd\	lae-	.	.	.	.
*	*	*	*Xtremolo	*	*	*	*	*	*	*	*	*	*	*	*	*	*	*
!	!	!	!	!	!	!	!	!	!	!	!	!	!LO:LB:g=original	!	!	!	!	!
=67	=67	=67	=67	=67	=67	=67	=67	=67	=67	=67	=67	=67	=67	=67	=67	=67	=67	=67
!	!	!	!LO:SIC:v:o=8a/L	!	!	!	!	!	!LO:SIC:o=8B\	!	!	!	!LO:SIC:o=8dd\	!	!	!	!	!
8G\L	X X	.	8g/L	.	8b\	.	8G\L	-tan-	(8B\	-tan-	(4b\	-tan-	(8dd\	-tan-	2ryy	2ryy	4.g\	4b\
8E\	.	.	8b/J	.	4gg\	.	8E\	.	4e\	.	.	.	4gg\	.	.	.	.	.
!LO:SIC:o=8Cn\	!	!	!	!	!	!	!	!	!	!	!	!	!	!	!	!	!	!
8C\	6 5	.	4a/	.	.	.	8C\	.	.	.	4a\)	.	.	.	.	.	.	4a\
!	!	!	!	!	!	!	!	!	!LO:SIC:o=8d\	!	!	!	!LO:SIC:o=8ff#\	!	!	!	!	!
8D\J	.	.	.	.	8ff#\	.	8D\J	.	8d\)	.	.	.	8ff#\)	.	.	.	8d\	.
!	!	!	!	!	!	!	!	!	!	!	!	!	!	!	!	!	!	!LO:LB:g=original
=68	=68	=68	=68	=68	=68	=68	=68	=68	=68	=68	=68	=68	=68	=68	=68	=68	=68	=68
!	!	!	!	!	!LO:TX:t=P:problem=mixed beam	!	!	!LO:MO:mod=-tem.	!	!LO:MO:mod=-tem.	!	!LO:MO:mod=-tem.	!	!LO:MO:mod=-tem.	!	!	!	!
4GG/	.	.	4b/	.	16gg\LL	.	4GG/	-tem	4d\	-lem	4b\	-tem	4gg\	-tem	2ryy	2ryy	4B/	4g\
.	.	.	.	.	16g/	.	.	.	.	.	.	.	.	.	.	.	.	.
.	.	.	.	.	16b/	.	.	.	.	.	.	.	.	.	.	.	.	.
.	.	.	.	.	16dd/JJ	.	.	.	.	.	.	.	.	.	.	.	.	.
8r	.	.	8r	.	16gg\LL	.	4r	.	4r	.	4r	.	4r	.	.	.	8r	8r
.	.	.	.	.	16ff#\	.	.	.	.	.	.	.	.	.	.	.	.	.
8BB/	6	.	8g/	.	16ee\	.	.	.	.	.	.	.	.	.	.	.	8g\	8b\
.	.	.	.	.	16dd\JJ	.	.	.	.	.	.	.	.	.	.	.	.	.
!	!	!	!	!	!LO:LB:g=original	!	!	!	!	!	!	!	!	!	!	!	!	!
=69	=69	=69	=69	=69	=69	=69	=69	=69	=69	=69	=69	=69	=69	=69	=69	=69	=69	=69
!	!	!	!LO:TX:t=P:problem=mixed beam	!	!	!	!LO:TX:a:t=5:mod=	!	!LO:TX:a:t=5:mod=	!	!	!	!LO:TX:a:t=1:mod=	!	!	!	!	!
!	!	!	!	!	!	!	!LO:N:vis=00	!	!LO:N:vis=00	!	!	!	!	!	!	!	!	!
8C/L	.	.	8g/L	.	8ee\L	.	0r	.	0r	.	2r	.	2r	.	2ryy	2ryy	4a\	4cc\
8C/	6	.	16ee\L	.	16ccc\L	.	.	.	.	.	.	.	.	.	.	.	.	.
.	.	.	16cc\JJ	.	16aa\JJ	.	.	.	.	.	.	.	.	.	.	.	.	.
8D/	4	.	16cc\LL	.	16aa\LL	.	.	.	.	.	.	.	.	.	.	.	8g\L	8b\L
.	.	.	16b\	.	16gg\	.	.	.	.	.	.	.	.	.	.	.	.	.
8DD/J	3	.	16b\	.	16gg\	.	.	.	.	.	.	.	.	.	.	.	8d\J	8a\J
.	.	.	16a\JJ	.	16ff#\JJ	.	.	.	.	.	.	.	.	.	.	.	.	.
=70	=70	=70	=70	=70	=70	=70	=70	=70	=70	=70	=70	=70	=70	=70	=70	=70	=70	=70
*tremolo	*	*	*	*	*	*	*	*	*	*	*	*	*	*	*	*	*	*
!	!	!	!	!	!	!	!	!	!	!	!LO:MO:mod=!LO&colon;TX&colon;a&colon;i&colon;t=Solo	!	!LO:TX:a:i:t=Solo	!	!	!	!	!
!	!	!	!	!	!	!	!	!	!	!	!LO:TX:a:i:t=Soli	!	!	!	!	!	!	!
8GG/L	.	.	4b\	.	4gg\	.	.	.	.	.	8r	.	8r	.	2ryy	2ryy	4B/	4g\
8GG/	.	.	.	.	.	.	.	.	.	.	8b\	Glo-	8dd\	Glo-	.	.	.	.
8GG/	.	.	4r	.	4r	.	.	.	.	.	16b\LL	-ri-	16dd\LL	-ri-	.	.	4r	4r
.	.	.	.	.	.	.	.	.	.	.	16g\JJ	.	16b\JJ	.	.	.	.	.
8GG/J	.	.	.	.	.	.	.	.	.	.	16cc\LL	-a	16ee\LL	-a	.	.	.	.
.	.	.	.	.	.	.	.	.	.	.	16b\JJ	.	16dd\JJ	.	.	.	.	.
*Xtremolo	*	*	*	*	*	*	*	*	*	*	*	*	*	*	*	*	*	*
=71	=71	=71	=71	=71	=71	=71	=71	=71	=71	=71	=71	=71	=71	=71	=71	=71	=71	=71
!	!	!	!LO:TX:a:t=2:mod=	!	!LO:TX:a:t=2:mod=	!	!	!	!	!	!	!	!	!	!	!	!LO:TX:a:t=2:mod=	!LO:TX:a:t=2:mod=
!	!	!	!LO:N:vis=0	!	!LO:N:vis=0	!	!	!	!	!	!	!	!	!	!	!	!LO:N:vis=0	!LO:N:vis=0
8GG/L	.	.	1r	.	1r	.	.	.	.	.	4b\	Pa-	4dd\	Pa-	2ryy	2ryy	1r	1r
8GG/	.	.	.	.	.	.	.	.	.	.	.	.	.	.	.	.	.	.
!	!	!	!	!	!	!	!	!	!	!	!	!LO:MO:mod=-tri,	!	!LO:MO:mod=-tri,	!	!	!	!
8C/	6	.	.	.	.	.	.	.	.	.	8a\	-tri	8cc\	-tri	.	.	.	.
8C#X/J	5	.	.	.	.	.	.	.	.	.	8g\	et	8b\	et	.	.	.	.
!	!	!	!	!	!	!	!	!	!	!	!LO:LB:g=original	!	!	!	!	!	!	!
=72	=72	=72	=72	=72	=72	=72	=72	=72	=72	=72	=72	=72	=72	=72	=72	=72	=72	=72
!LO:TX:t=P:problem=mixed beam	!	!	!	!	!	!	!	!	!	!	!LO:SIC:v:o=16g\	!LO:MO:mod=Fi-	!	!LO:MO:mod=Fi-	!	!	!	!
8D\L	.	.	.	.	.	.	.	.	.	.	16f#\	fi-	16a\	fi-	2ryy	2ryy	.	.
.	.	.	.	.	.	.	.	.	.	.	16g\	-li-	16b\	-li-	.	.	.	.
!	!	!	!	!	!	!	!	!	!	!	!	!LO:MO:mod=-o,	!	!LO:MO:mod=-o,	!	!	!	!
8DD/	.	.	.	.	.	.	.	.	.	.	8f#\	-o	8a\	-o	.	.	.	.
8D\	.	.	.	.	.	.	.	.	.	.	8a\	et	8cc\	et	.	.	.	.
!	!	!	!	!	!	!	!	!	!	!	!	!LO:MO:mod=Spi-	!	!LO:MO:mod=Spi-	!	!	!	!
8D\J	.	.	.	.	.	.	.	.	.	.	8a\	spi-	8cc\	spi-	.	.	.	.
=73	=73	=73	=73	=73	=73	=73	=73	=73	=73	=73	=73	=73	=73	=73	=73	=73	=73	=73
!LO:TX:t=P:problem=mixed beam	!	!	!	!	!	!	!	!	!	!	!	!	!	!	!	!	!	!
8G\L	.	.	8r	.	8r	.	2r	.	2r	.	16g\LL	-ri-	16b\LL	-ri-	2ryy	2ryy	8r	8r
.	.	.	.	.	.	.	.	.	.	.	16b\JJ	.	16dd\JJ	.	.	.	.	.
8c\	.	.	8cc\L	.	8aa\L	.	.	.	.	.	16cc\	-tu-	16ee\	-tu-	.	.	8a\L	8cc\L
.	.	.	.	.	.	.	.	.	.	.	16a\	-i	16cc\	-i	.	.	.	.
!	!	!	!	!	!	!	!	!	!	!	!	!LO:MO:mod=San-	!	!LO:MO:mod=San-	!	!	!	!
8d\	.	.	8b\	.	8gg\	.	.	.	.	.	8g\L	san-	8b\L	san-	.	.	8g\	8b\
8D/J	.	.	8a\J	.	8ff#\J	.	.	.	.	.	8f#\J	.	8a\J	.	.	.	8d\J	8a\J
=74	=74	=74	=74	=74	=74	=74	=74	=74	=74	=74	=74	=74	=74	=74	=74	=74	=74	=74
*tremolo	*	*	*tremolo	*	*	*	*	*	*	*	*	*	*	*	*	*	*	*
!	!	!	!	!LO:MO:mod=!null:null	!	!LO:MO:mod=!null:null	!	!	!	!	!	!	!	!	!	!	!	!
!	!	!	!	!LO:DY:b:rj	!	!LO:DY:b:rj:t=fo	!	!	!	!	!	!LO:MO:mod=-cto.	!	!LO:MO:mod=-cto.	!	!	!	!
8G\L	.	.	8b\L	f	8gg\L	f	8r	.	8r	.	8g\	-cto	8b\	-cto	2ryy	2ryy	4B/	2g\
!	!	!	!	!	!	!	!	!	!	!	!	!LO:MO:mod=Sic-	!	!LO:MO:mod=Sic-	!	!	!	!
8G\	.	.	8b\	.	32gg\LL	.	16G\	Sic-	16G/	Sic-	16b\	sic-	16dd\	sic-	.	.	.	.
.	.	.	.	.	32ff#\	.	.	.	.	.	.	.	.	.	.	.	.	.
.	.	.	.	.	32gg\	.	16G\	-ut	16G/	-ut	16b\	-ut	16dd\	-ut	.	.	.	.
.	.	.	.	.	32aa\JJJ	.	.	.	.	.	.	.	.	.	.	.	.	.
8G\	.	.	8b\	.	16gg\LL	.	8G\	e-	8G/	e-	8b\	e-	8dd\	e-	.	.	4G/	.
.	.	.	.	.	16ff#\	.	.	.	.	.	.	.	.	.	.	.	.	.
8G\J	.	.	8b\J	.	16ee\	.	8G\	-rat	8G/	-rat	8b\	-rat	8dd\	-rat	.	.	.	.
.	.	.	.	.	16dd\JJ	.	.	.	.	.	.	.	.	.	.	.	.	.
!LO:LB:g=original	!	!	!	!	!	!	!	!	!	!	!	!	!LO:LB:g=original	!	!	!	!	!
=75	=75	=75	=75	=75	=75	=75	=75	=75	=75	=75	=75	=75	=75	=75	=75	=75	=75	=75
8G\L	6 4	.	8cc\L	.	8ee\L	.	8G\	in	8G/	in	8cc\	in	8ee\	in	2ryy	2ryy	2G/	2g\
8G\	.	.	8cc\	.	32gg\LL	.	8G\	prin-	8G/	prin-	8cc\	prin-	8ee\	prin-	.	.	.	.
.	.	.	.	.	32ff#\	.	.	.	.	.	.	.	.	.	.	.	.	.
.	.	.	.	.	32gg\	.	.	.	.	.	.	.	.	.	.	.	.	.
.	.	.	.	.	32aa\JJJ	.	.	.	.	.	.	.	.	.	.	.	.	.
!	!	!	!	!	!	!	!	!	!	!	!LO:MO:mod=!null:null	!	!	!	!	!	!	!
!	!	!	!	!	!	!	!	!	!	!	!LO:N:vis=8	!	!	!	!	!	!	!
8G\	.	.	8cc\	.	16gg\LL	.	8.G\	-ci-	8.G/	-ci-	8.cc\	-ci-	8.ee\	-ci-	.	.	.	.
.	.	.	.	.	16ee\	.	.	.	.	.	.	.	.	.	.	.	.	.
8G\J	.	.	8cc\J	.	16dd\	.	.	.	.	.	.	.	.	.	.	.	.	.
!	!	!	!	!	!	!	!	!	!	!	!LO:MO:mod=!null:null	!	!	!	!	!	!	!
!	!	!	!	!	!	!	!	!	!	!	!LO:N:vis=8	!	!	!	!	!	!	!
.	.	.	.	.	16cc\JJ	.	16G\	-pi-	16G/	-pi-	16cc\	-pi-	16ee\	-pi-	.	.	.	.
*Xtremolo	*	*	*Xtremolo	*	*	*	*	*	*	*	*	*	*	*	*	*	*	*
!	!	!	!	!	!	!	!LO:LB:g=original	!	!LO:LB:g=original	!	!	!	!	!	!	!	!	!
=76	=76	=76	=76	=76	=76	=76	=76	=76	=76	=76	=76	=76	=76	=76	=76	=76	=76	=76
!	!	!	!	!	!	!	!	!LO:MO:mod=-o,	!	!LO:MO:mod=-o,	!	!LO:MO:mod=-o,	!	!LO:MO:mod=-o,	!	!	!	!
8G\L	5 3	.	8b\L	.	16b\LL	.	8G\	-o	8B\	-o	8b\	-o	8dd\	-o	2ryy	2ryy	4G/	4g\
.	.	.	.	.	16dd\	.	.	.	.	.	.	.	.	.	.	.	.	.
!	!	!	!	!	!	!	!	!	!	!LO:MO:mod=et	!	!	!	!	!	!	!	!
8G\	.	.	8b\J	.	16gg\	.	8G\	et	8B\	&	8b\	et	8dd\	et	.	.	.	.
.	.	.	.	.	16dd\JJ	.	.	.	.	.	.	.	.	.	.	.	.	.
!	!	!	!	!	!	!	!	!LO:MO:mod=nunc,	!	!LO:MO:mod=nunc,	!	!LO:MO:mod=nunc,	!	!LO:MO:mod=nunc,	!	!	!	!
8d\	4	.	16b\LL	.	16dd\LL	.	8d\	nunc	8d\	nunc	16b\LL	nunc	16dd\LL	nunc	.	.	8g\L	8b\L
.	.	.	16a\	.	16cc\	.	.	.	.	.	16a\JJ	.	16cc\JJ	.	.	.	.	.
!	!	!	!	!	!	!	!	!	!	!LO:MO:mod=et	!	!	!	!	!	!	!	!
8D\J	3	.	16g\	.	16b\	.	8D\	et	8d\	&	16g\LL	et	16b\LL	et	.	.	8d\J	8a\J
.	.	.	16f#\JJ	.	16a\JJ	.	.	.	.	.	16f#\JJ	.	16a\JJ	.	.	.	.	.
!	!	!	!LO:LB:g=original	!	!LO:LB:g=original	!	!	!	!	!	!	!	!	!	!	!	!	!
=77	=77	=77	=77	=77	=77	=77	=77	=77	=77	=77	=77	=77	=77	=77	=77	=77	=77	=77
*tremolo	*	*	*	*	*	*	*	*	*	*	*	*	*	*	*	*	*	*
8G\L	.	.	8g/L	.	8b\L	.	8G\	sem-	8d\	sem-	8g\	sem-	8b\	sem-	2ryy	2ryy	2B/	2g\
!	!	!	!	!	!	!	!	!LO:MO:mod=-per,	!	!LO:MO:mod=-per,	!	!LO:MO:mod=-per,	!	!LO:MO:mod=-per,	!	!	!	!
8G\	.	.	8d/	.	8b\J	.	8G\	-per	8d\	-per	8g\	-per	8b\	-per	.	.	.	.
!!LO:MO:ori
!	!	!	!	!	!	!	!	!	!	!	!LO:LB:g=original	!	!	!	!	!	!	!
=-	=-	=-	=-	=-	=-	=-	=-	=-	=-	=-	=-	=-	=-	=-	=-	=-	=-	=-
!!LO:MO:end
!	!	!	!	!	!	!	!	!	!	!LO:MO:mod=et	!	!	!	!	!	!	!	!
8G\	.	.	8b/	.	16dd\LL	.	8G\	et	8G\	&	8b\	et	8dd\	et	.	.	.	.
.	.	.	.	.	16b\	.	.	.	.	.	.	.	.	.	.	.	.	.
8G\J	.	.	8b/J	.	16gg\	.	8G\	in	8G\	in	8b\	in	8dd\	in	.	.	.	.
.	.	.	.	.	16dd\JJ	.	.	.	.	.	.	.	.	.	.	.	.	.
!	!	!	!	!	!	!	!	!	!	!	!	!	!	!	!	!	!LO:LB:g=original	!
=78	=78	=78	=78	=78	=78	=78	=78	=78	=78	=78	=78	=78	=78	=78	=78	=78	=78	=78
*	*	*	*tremolo	*	*	*	*	*	*	*	*	*	*	*	*	*	*	*
!	!	!	!	!	!	!	!	!	!	!LO:MO:mod=sae-	!	!	!	!LO:MO:mod=sae-	!	!	!	!
8F#\L	6 5	.	8a\L	.	16dd\LL	.	8F#\	sae-	8A\	se-	8cc\	sae-	8dd\	se-	2ryy	2ryy	2d/	2a\
.	.	.	.	.	16cc\J	.	.	.	.	.	.	.	.	.	.	.	.	.
8F#\	.	.	8a\	.	8a\J	.	16F#\	-cu-	16A\	-cu-	16cc\	-cu-	16dd\	-cu-	.	.	.	.
.	.	.	.	.	.	.	16F#\	-la	16A\	-la	16cc\	-la	16dd\	-la	.	.	.	.
!	!	!	!	!	!	!	!	!	!	!LO:MO:mod=sae-	!	!	!	!LO:MO:mod=sae-	!	!	!	!
8F#\	.	.	8a\	.	16a\LL	.	8F#\	sae-	8A\	se-	8cc\	sae-	8dd\	se-	.	.	.	.
.	.	.	.	.	16cc\	.	.	.	.	.	.	.	.	.	.	.	.	.
8F#\J	.	.	8a\J	.	16ff#\	.	8F#\	-cu-	8A\	-cu-	8cc\	-cu-	8dd\	-cu-	.	.	.	.
.	.	.	.	.	16aa\JJ	.	.	.	.	.	.	.	.	.	.	.	.	.
*Xtremolo	*	*	*Xtremolo	*	*	*	*	*	*	*	*	*	*	*	*	*	*	*
=79	=79	=79	=79	=79	=79	=79	=79	=79	=79	=79	=79	=79	=79	=79	=79	=79	=79	=79
!LO:TX:t=P:problem=mixed beam	!	!	!	!	!	!	!	!	!	!	!	!	!	!	!	!	!	!
8G\L	.	.	8b\L	.	16gg\LL	.	8G\	-lo-	8B\	-lo-	8b\	-lo-	8dd\	-lo-	2ryy	2ryy	8g\L	8b\L
.	.	.	.	.	16dd\	.	.	.	.	.	.	.	.	.	.	.	.	.
!	!	!	!	!	!	!	!	!LO:MO:mod=-rum.	!	!LO:MO:mod=-rum.	!	!LO:MO:mod=-rum.	!	!LO:MO:mod=-rum.	!	!	!	!
8C\	6	.	16cc\L	.	16ee\	.	8c\	-rum	8c\	-rum	16cc\LL	-rum	16ee\LL	-rum	.	.	8a\	8cc\
.	.	.	16a\JJ	.	16cc\JJ	.	.	.	.	.	16a\JJ	.	16cc\JJ	.	.	.	.	.
!	!	!	!	!	!	!	!	!LO:MO:mod=A-	!	!LO:MO:mod=A-	!	!LO:MO:mod=A-	!	!LO:MO:mod=A-	!	!	!	!
8D\	4	.	8g/L	.	8b\L	.	8d\L	a-	4d\	a-	8g\L	a-	8b\L	a-	.	.	8g\	8b\
8DD/J	3	.	8f#/J	.	8a\J	.	8D\J	.	.	.	8f#\J	.	8a\J	.	.	.	8d\J	8a\J
=80	=80	=80	=80	=80	=80	=80	=80	=80	=80	=80	=80	=80	=80	=80	=80	=80	=80	=80
!LO:TX:t=P:problem=mixed beam	!	!	!	!	!	!	!	!LO:MO:mod=-men,	!	!LO:MO:null:mod=-[men,	!	!LO:MO:mod=-men,	!	!LO:MO:mod=-men,	!	!	!LO:TX:t=P:problem=mixed beam	!
8GG/L	.	.	16g/LL	.	16b\LL	.	8G\	-men	8d\	.	8g\	-men	8b\	-men	2ryy	2ryy	8B/L	8g\L
.	.	.	16b/	.	16gg\	.	.	.	.	.	.	.	.	.	.	.	.	.
!	!	!	!	!	!	!	!LO:SIC:o=8E\	!	!LO:SIC:o=4e\	!LO:MO:null:mod=a]-	!LO:SIC:o=8b\	!	!LO:SIC:o=4gg\	!	!	!	!	!LO:SIC:v:o=8a\J
8E\	.	.	16b/	.	16gg\	.	8E\L	a-	(4e\	.	(8b\	a-	(4gg\	a-	.	.	8g\	8b\J
.	.	.	16b/JJ	.	16gg\JJ	.	.	.	.	.	.	.	.	.	.	.	.	.
*	*	*	*tremolo	*	*	*	*	*	*	*	*	*	*	*	*	*	*	*
!	!	!	!	!	!	!	!LO:SIC:o=8C/L	!	!	!	!LO:SIC:o=(4a\	!	!	!	!	!	!	!
8C\	6 5	.	16a/LL	.	16gg\LL	.	8C/	.	.	.	4a\)	.	.	.	.	.	8g\	4a\
.	.	.	16a/	.	16gg\	.	.	.	.	.	.	.	.	.	.	.	.	.
!	!	!	!	!	!	!	!	!	!LO:SIC:o=8d\	!	!	!	!LO:SIC:o=8ff#\	!	!	!	!	!
8D\J	.	.	16a/	.	16ff#\	.	8D/J	.	8d\)	.	.	.	8ff#\)	.	.	.	8d\J	.
.	.	.	16a/JJ	.	16ff#\JJ	.	.	.	.	.	.	.	.	.	.	.	.	.
*	*	*	*Xtremolo	*	*	*	*	*	*	*	*	*	*	*	*	*	*	*
=81	=81	=81	=81	=81	=81	=81	=81	=81	=81	=81	=81	=81	=81	=81	=81	=81	=81	=81
!	!	!	!	!	!	!	!	!LO:MO:mod=-men.	!	!LO:MO:mod=-men.	!LO:SIC:o=4b\)	!LO:MO:mod=-men.	!	!LO:MO:mod=-men.	!	!	!	!
4GG/	.	.	4d/ 4b	.	4d\ 4b 4gg	.	4GG/	-men	4d\	-men	4b\	-men	4gg\	-men	2ryy	2ryy	4B/	4g\
4r	.	.	4r	.	4r	.	4r	.	4r	.	4r	.	4r	.	.	.	4r	4r
!	!	!	!LO:LB:g=original	!	!LO:PB:g=original	!	!LO:LB:g=original	!	!LO:LB:g=original	!	!LO:LB:g=original	!	!LO:LB:g=original	!	!	!	!	!LO:LB:g=original
==	==	==	==	==	==	==	==	==	==	==	==	==	==	==	==	==	==	==
*-	*-	*-	*-	*-	*-	*-	*-	*-	*-	*-	*-	*-	*-	*-	*-	*-	*-	*-
!!!system-decoration: [(g1)][(g2)][(g3)][(g4)](g5)
!!!RDF**kern: < = below
!!!RDF**kern: > = above
!!!RDF**kern: | = vertical stroke
!!!filter-modern: sic -sq | shed -e "s/TX(.*):t=P:/tx$1:t=P:/LG" | shed -e "s/N:vis=/N:VIS=/L" | shed -e "s/^(\d+[\/\\]right)/$1yy/I; s/^(\d+[\/\\]left)/$1yy/I" | autostem -r | tie -s | humtr -p | modori -m
!!!ENC: Mateusz Solarz
!!!END: 2020-07-20
!!!EED: Marta Chmielewska
!!!EEV: 2022-01-14
!!!ENC-modern: Katarzyna Serwa
!!!END-modern: 2022-07-02
